;FLAVOR:Marlin
;TIME:291
;Filament used: 0.138047m
;Layer height: 0.2
;MINX:157.65
;MINY:160.044
;MINZ:0.2
;MAXX:192.349
;MAXY:194.761
;MAXZ:4.8
;Generated with Cura_SteamEngine 4.10.0
M140 S50
M105
M190 S50
M104 S245
M105
M109 S245
M82 ;absolute extrusion mode
M201 X500.00 Y500.00 Z100.00 E5000.00 ;Setup machine max acceleration
M203 X500.00 Y500.00 Z10.00 E50.00 ;Setup machine max feedrate
M204 P500.00 R1000.00 T500.00 ;Setup Print/Retract/Travel acceleration
M205 X8.00 Y8.00 Z0.40 E5.00 ;Setup Jerk
M220 S100 ;Reset Feedrate
M221 S100 ;Reset Flowrate

G28 ;Home
M420 S1 Z2 ;Enable ABL using saved Mesh and Fade Height

G92 E0 ;Reset Extruder
G1 Z2.0 F3000 ;Move Z Axis up
G1 X10.1 Y20 Z0.28 F5000.0 ;Move to start position
G1 X10.1 Y200.0 Z0.28 F1500.0 E15 ;Draw the first line
G1 X10.4 Y200.0 Z0.28 F5000.0 ;Move to side a little
G1 X10.4 Y20 Z0.28 F1500.0 E30 ;Draw the second line
G92 E0 ;Reset Extruder
G1 Z2.0 F3000 ;Move Z Axis up

G92 E0
G92 E0
G1 F1500 E-7.5
;LAYER_COUNT:24
;LAYER:0
M107
G0 F6000 X162.742 Y165.105 Z0.2
;TYPE:SKIRT
G1 F1500 E0
G1 F1200 X162.869 Y164.98 E0.00591
G1 X163.26 Y164.614 E0.02368
G1 X163.556 Y164.349 E0.03686
G1 X164.035 Y163.943 E0.05769
G1 X164.215 Y163.799 E0.06534
G1 X164.649 Y163.469 E0.08343
G1 X164.928 Y163.267 E0.09486
G1 X165.492 Y162.883 E0.1175
G1 X165.904 Y162.621 E0.13369
G1 X166.198 Y162.441 E0.14513
G1 X166.331 Y162.362 E0.15026
G1 X166.898 Y162.046 E0.1718
G1 X167.083 Y161.95 E0.17871
G1 X167.583 Y161.706 E0.19717
G1 X167.989 Y161.52 E0.21199
G1 X168.872 Y161.16 E0.24362
G1 X169.3 Y161.006 E0.25872
G1 X169.762 Y160.851 E0.27488
G1 X170.369 Y160.678 E0.29582
G1 X171.042 Y160.506 E0.31887
G1 X171.705 Y160.357 E0.34141
G1 X171.866 Y160.326 E0.34685
G1 X172.492 Y160.224 E0.3679
G1 X172.692 Y160.197 E0.37459
G1 X172.997 Y160.16 E0.38478
G1 X173.304 Y160.127 E0.39503
G1 X173.985 Y160.074 E0.41769
G1 X174.284 Y160.06 E0.42762
G1 X174.627 Y160.05 E0.43901
G1 X174.991 Y160.044 E0.45108
G1 X175.724 Y160.055 E0.47541
G1 X176.014 Y160.069 E0.48504
G1 X176.687 Y160.122 E0.50744
G1 X176.881 Y160.143 E0.51391
G1 X177.522 Y160.231 E0.53538
G1 X178.123 Y160.331 E0.55559
G1 X178.823 Y160.47 E0.57927
G1 X179.142 Y160.544 E0.59013
G1 X179.914 Y160.752 E0.61666
G1 X180.317 Y160.876 E0.63065
G1 X180.862 Y161.059 E0.64972
G1 X181.046 Y161.126 E0.65622
G1 X181.605 Y161.347 E0.67616
G1 X181.887 Y161.467 E0.68633
G1 X182.285 Y161.645 E0.70079
G1 X182.55 Y161.77 E0.71051
G1 X183.199 Y162.102 E0.7347
G1 X183.586 Y162.316 E0.74937
G1 X184.096 Y162.616 E0.769
G1 X184.242 Y162.707 E0.77471
G1 X184.705 Y163.011 E0.79308
G1 X185.08 Y163.271 E0.80822
G1 X185.576 Y163.635 E0.82863
G1 X185.724 Y163.75 E0.83485
G1 X186.143 Y164.093 E0.85282
G1 X186.464 Y164.368 E0.86684
G1 X187.044 Y164.9 E0.89295
G1 X187.244 Y165.097 E0.90227
G1 X187.564 Y165.425 E0.91747
G1 X187.755 Y165.629 E0.92674
G1 X188.172 Y166.101 E0.94764
G1 X188.48 Y166.469 E0.96356
G1 X188.685 Y166.72 E0.97431
G1 X188.775 Y166.834 E0.97913
G1 X189.386 Y167.687 E1.01394
G1 X189.643 Y168.083 E1.0296
G1 X189.878 Y168.462 E1.0444
G1 X190.193 Y169.021 E1.06568
G1 X190.503 Y169.611 E1.0878
G1 X190.961 Y170.594 E1.12378
G1 X191.176 Y171.12 E1.14263
G1 X191.558 Y172.21 E1.18095
G1 X191.728 Y172.788 E1.20094
G1 X191.85 Y173.237 E1.21637
G1 X191.874 Y173.333 E1.21966
G1 X192.034 Y174.081 E1.24503
G1 X192.119 Y174.555 E1.26101
G1 X192.197 Y175.054 E1.27777
G1 X192.226 Y175.271 E1.28503
G1 X192.293 Y175.903 E1.30612
G1 X192.316 Y176.202 E1.31606
G1 X192.343 Y176.701 E1.33264
G1 X192.348 Y176.854 E1.33772
G1 X192.349 Y177.573 E1.36158
G1 X192.326 Y178.319 E1.38634
G1 X192.262 Y179.216 E1.41617
G1 X192.234 Y179.469 E1.42462
G1 X192.142 Y180.125 E1.4466
G1 X192.072 Y180.536 E1.46043
G1 X191.951 Y181.148 E1.48113
G1 X191.913 Y181.315 E1.48681
G1 X191.777 Y181.85 E1.50512
G1 X191.663 Y182.258 E1.51918
G1 X191.5 Y182.792 E1.5377
G1 X191.433 Y182.993 E1.54473
G1 X191.227 Y183.559 E1.56471
G1 X191.068 Y183.963 E1.57912
G1 X190.844 Y184.493 E1.59821
G1 X190.771 Y184.654 E1.60407
G1 X190.522 Y185.167 E1.62299
G1 X190.323 Y185.553 E1.6374
G1 X189.916 Y186.277 E1.66495
G1 X189.766 Y186.522 E1.67448
G1 X189.369 Y187.126 E1.69846
G1 X189.103 Y187.504 E1.7138
G1 X188.905 Y187.776 E1.72496
G1 X188.723 Y188.019 E1.73503
G1 X188.309 Y188.54 E1.75711
G1 X188.249 Y188.611 E1.7602
G1 X187.878 Y189.029 E1.77874
G1 X187.486 Y189.449 E1.7978
G1 X187.215 Y189.73 E1.81075
G1 X187.113 Y189.832 E1.81554
G1 X186.653 Y190.267 E1.83654
G1 X186.502 Y190.402 E1.84326
G1 X186.08 Y190.76 E1.86162
G1 X185.712 Y191.058 E1.87733
G1 X185.175 Y191.467 E1.89973
G1 X185.059 Y191.55 E1.90446
G1 X184.626 Y191.845 E1.92184
G1 X184.274 Y192.073 E1.93576
G1 X183.446 Y192.561 E1.96764
G1 X182.936 Y192.833 E1.98682
G1 X182.617 Y192.997 E1.99872
G1 X182.093 Y193.242 E2.01791
G1 X181.812 Y193.365 E2.02809
G1 X181.477 Y193.506 E2.04015
G1 X181.252 Y193.596 E2.04819
G1 X180.29 Y193.931 E2.08198
G1 X179.765 Y194.088 E2.10016
G1 X179.326 Y194.21 E2.11528
G1 X178.733 Y194.349 E2.13549
G1 X178.326 Y194.433 E2.14927
G1 X177.85 Y194.521 E2.16533
G1 X177.739 Y194.539 E2.16906
G1 X177.084 Y194.626 E2.19099
G1 X176.413 Y194.695 E2.21336
G1 X175.988 Y194.731 E2.22752
G1 X175.222 Y194.76 E2.25295
G1 X174.999 Y194.761 E2.26035
G1 X174.517 Y194.753 E2.27634
G1 X174.123 Y194.738 E2.28942
G1 X173.477 Y194.695 E2.3109
G1 X173.278 Y194.676 E2.31753
G1 X172.725 Y194.609 E2.33601
G1 X172.326 Y194.551 E2.34939
G1 X171.814 Y194.465 E2.36661
G1 X171.601 Y194.424 E2.37381
G1 X170.965 Y194.282 E2.39543
G1 X170.534 Y194.173 E2.41018
G1 X169.971 Y194.015 E2.42958
G1 X169.796 Y193.961 E2.43566
G1 X169.265 Y193.783 E2.45424
G1 X168.847 Y193.631 E2.46899
G1 X168.29 Y193.412 E2.48885
G1 X168.144 Y193.35 E2.49411
G1 X167.583 Y193.093 E2.51459
G1 X167.157 Y192.884 E2.53033
G1 X166.47 Y192.517 E2.55617
G1 X166.055 Y192.273 E2.57214
G1 X165.714 Y192.064 E2.58541
G1 X165.116 Y191.671 E2.60915
G1 X164.944 Y191.55 E2.61613
G1 X164.57 Y191.275 E2.63153
G1 X164.253 Y191.032 E2.64478
G1 X163.714 Y190.592 E2.66787
G1 X163.569 Y190.466 E2.67424
G1 X163.153 Y190.086 E2.69293
G1 X162.8 Y189.747 E2.70917
G1 X162.323 Y189.26 E2.73179
G1 X162.215 Y189.143 E2.73707
G1 X161.934 Y188.828 E2.75107
G1 X161.773 Y188.64 E2.75928
G1 X161.288 Y188.032 E2.78509
G1 X160.87 Y187.47 E2.80832
G1 X160.312 Y186.646 E2.84134
G1 X160.144 Y186.373 E2.85198
G1 X159.869 Y185.902 E2.87007
G1 X159.739 Y185.666 E2.87901
G1 X159.391 Y184.98 E2.90453
G1 X159.155 Y184.473 E2.92308
G1 X158.956 Y184.019 E2.93953
G1 X158.875 Y183.823 E2.94657
G1 X158.623 Y183.155 E2.97025
G1 X158.551 Y182.944 E2.97765
G1 X158.413 Y182.512 E2.9927
G1 X158.35 Y182.3 E3.00003
G1 X158.165 Y181.593 E3.02428
G1 X157.998 Y180.861 E3.04919
G1 X157.8 Y179.737 E3.08705
G1 X157.762 Y179.431 E3.09728
G1 X157.72 Y179.028 E3.11073
G1 X157.709 Y178.903 E3.11489
G1 X157.667 Y178.141 E3.14021
G1 X157.65 Y177.308 E3.16785
G1 X157.676 Y176.274 E3.20217
G1 X157.689 Y176.091 E3.20825
G1 X157.742 Y175.539 E3.22665
G1 X157.795 Y175.099 E3.24135
G1 X157.898 Y174.423 E3.26404
G1 X157.937 Y174.209 E3.27126
G1 X158.033 Y173.735 E3.2873
G1 X158.106 Y173.413 E3.29826
G1 X158.359 Y172.485 E3.33017
G1 X158.531 Y171.944 E3.349
G1 X158.662 Y171.555 E3.36262
G1 X158.748 Y171.315 E3.37108
G1 X158.985 Y170.709 E3.39267
G1 X159.142 Y170.344 E3.40585
G1 X159.245 Y170.113 E3.41424
G1 X159.619 Y169.353 E3.44234
G1 X159.758 Y169.095 E3.45207
G1 X160.007 Y168.656 E3.46881
G1 X160.114 Y168.477 E3.47573
G1 X160.447 Y167.953 E3.49633
G1 X160.835 Y167.378 E3.51934
G1 X161.151 Y166.933 E3.53745
G1 X161.485 Y166.504 E3.55549
G1 X161.639 Y166.316 E3.56355
G1 X162.004 Y165.893 E3.58209
G1 X162.29 Y165.577 E3.59623
G1 X162.742 Y165.105 E3.61791
G0 F6000 X163.009 Y165.376
G1 F1200 X163.136 Y165.251 E3.62382
G1 X163.513 Y164.897 E3.64098
G1 X163.809 Y164.632 E3.65416
G1 X164.273 Y164.239 E3.67433
G1 X164.453 Y164.095 E3.68198
G1 X164.871 Y163.777 E3.69941
G1 X165.15 Y163.575 E3.71083
G1 X165.696 Y163.204 E3.73273
G1 X166.108 Y162.942 E3.74893
G1 X166.392 Y162.768 E3.75998
G1 X166.525 Y162.689 E3.76511
G1 X167.073 Y162.384 E3.78592
G1 X167.258 Y162.288 E3.79284
G1 X167.741 Y162.052 E3.81067
G1 X168.147 Y161.866 E3.82549
G1 X169.001 Y161.518 E3.85608
G1 X169.429 Y161.364 E3.87117
G1 X169.877 Y161.213 E3.88686
G1 X170.463 Y161.046 E3.90707
G1 X171.136 Y160.874 E3.93012
G1 X171.777 Y160.731 E3.95191
G1 X171.938 Y160.7 E3.95735
G1 X172.543 Y160.6 E3.97769
G1 X172.743 Y160.573 E3.98439
G1 X173.038 Y160.538 E3.99425
G1 X173.345 Y160.505 E4.00449
G1 X174.003 Y160.454 E4.02639
G1 X174.302 Y160.44 E4.03632
G1 X174.634 Y160.429 E4.04734
G1 X174.998 Y160.423 E4.05941
G1 X175.706 Y160.435 E4.08291
G1 X175.996 Y160.449 E4.09254
G1 X176.646 Y160.5 E4.11417
G1 X176.84 Y160.521 E4.12065
G1 X177.459 Y160.606 E4.14137
G1 X178.06 Y160.706 E4.16159
G1 X178.737 Y160.84 E4.18448
G1 X179.056 Y160.914 E4.19535
G1 X179.802 Y161.115 E4.22098
G1 X180.205 Y161.239 E4.23497
G1 X180.732 Y161.416 E4.25341
G1 X180.916 Y161.483 E4.25991
G1 X181.457 Y161.696 E4.2792
G1 X181.739 Y161.816 E4.28937
G1 X182.122 Y161.988 E4.3033
G1 X182.387 Y162.113 E4.31302
G1 X183.015 Y162.434 E4.33642
G1 X183.402 Y162.648 E4.35109
G1 X183.895 Y162.938 E4.37007
G1 X184.041 Y163.029 E4.37577
G1 X184.488 Y163.323 E4.39352
G1 X184.863 Y163.583 E4.40866
G1 X185.343 Y163.935 E4.42841
G1 X185.491 Y164.05 E4.43463
G1 X185.896 Y164.381 E4.45198
G1 X186.217 Y164.656 E4.46601
G1 X186.777 Y165.171 E4.49125
G1 X186.977 Y165.368 E4.50056
G1 X187.286 Y165.685 E4.51525
G1 X187.477 Y165.889 E4.52452
G1 X187.881 Y166.345 E4.54473
G1 X188.189 Y166.713 E4.56065
G1 X188.476 Y167.07 E4.57585
G1 X189.067 Y167.894 E4.60949
G1 X189.324 Y168.29 E4.62516
G1 X189.553 Y168.657 E4.63951
G1 X189.856 Y169.198 E4.66008
G1 X190.166 Y169.788 E4.68219
G1 X190.609 Y170.738 E4.71697
G1 X190.824 Y171.264 E4.73582
G1 X191.193 Y172.317 E4.77284
G1 X191.363 Y172.895 E4.79283
G1 X191.481 Y173.329 E4.80775
G1 X191.505 Y173.425 E4.81103
G1 X191.66 Y174.148 E4.83556
G1 X191.745 Y174.622 E4.85154
G1 X191.821 Y175.105 E4.86776
G1 X191.85 Y175.322 E4.87503
G1 X191.914 Y175.932 E4.89537
G1 X191.937 Y176.231 E4.90532
G1 X191.963 Y176.713 E4.92134
G1 X191.968 Y176.866 E4.92642
G1 X191.969 Y177.561 E4.94948
G1 X191.946 Y178.307 E4.97424
G1 X191.885 Y179.175 E5.00311
G1 X191.857 Y179.428 E5.01155
G1 X191.768 Y180.061 E5.03276
G1 X191.698 Y180.472 E5.04659
G1 X191.58 Y181.064 E5.06662
G1 X191.542 Y181.231 E5.0723
G1 X191.411 Y181.748 E5.08999
G1 X191.297 Y182.156 E5.10405
G1 X191.139 Y182.672 E5.12195
G1 X191.072 Y182.873 E5.12898
G1 X190.873 Y183.42 E5.14829
G1 X190.714 Y183.824 E5.1627
G1 X190.498 Y184.336 E5.18113
G1 X190.425 Y184.497 E5.187
G1 X190.185 Y184.993 E5.20528
G1 X189.986 Y185.379 E5.21969
G1 X189.592 Y186.079 E5.24634
G1 X189.442 Y186.324 E5.25587
G1 X189.058 Y186.908 E5.27906
G1 X188.792 Y187.286 E5.29439
G1 X188.601 Y187.548 E5.30515
G1 X188.419 Y187.791 E5.31522
G1 X188.019 Y188.295 E5.33657
G1 X187.959 Y188.366 E5.33965
G1 X187.6 Y188.769 E5.35756
G1 X187.208 Y189.189 E5.37662
G1 X186.946 Y189.461 E5.38915
G1 X186.844 Y189.563 E5.39394
G1 X186.399 Y189.983 E5.41424
G1 X186.248 Y190.118 E5.42096
G1 X185.841 Y190.465 E5.4387
G1 X185.473 Y190.763 E5.45441
G1 X184.954 Y191.158 E5.47605
G1 X184.838 Y191.241 E5.48078
G1 X184.419 Y191.526 E5.49759
G1 X184.067 Y191.754 E5.51151
G1 X183.267 Y192.226 E5.54233
G1 X182.757 Y192.498 E5.5615
G1 X182.447 Y192.657 E5.57306
G1 X181.941 Y192.894 E5.5916
G1 X181.66 Y193.017 E5.60177
G1 X181.336 Y193.153 E5.61343
G1 X181.111 Y193.243 E5.62147
G1 X180.181 Y193.567 E5.65415
G1 X179.656 Y193.724 E5.67233
G1 X179.23 Y193.842 E5.68699
G1 X178.656 Y193.977 E5.70655
G1 X178.249 Y194.061 E5.72034
G1 X177.789 Y194.146 E5.73586
G1 X177.678 Y194.164 E5.73959
G1 X177.045 Y194.248 E5.76078
G1 X176.374 Y194.317 E5.78316
G1 X175.961 Y194.352 E5.79691
G1 X175.22 Y194.38 E5.82151
G1 X174.997 Y194.381 E5.82891
G1 X174.531 Y194.373 E5.84437
G1 X174.137 Y194.358 E5.85745
G1 X173.513 Y194.316 E5.8782
G1 X173.314 Y194.297 E5.88483
G1 X172.78 Y194.233 E5.90268
G1 X172.381 Y194.175 E5.91605
G1 X171.886 Y194.092 E5.93271
G1 X171.673 Y194.051 E5.9399
G1 X171.058 Y193.914 E5.96081
G1 X170.627 Y193.805 E5.97556
G1 X170.083 Y193.652 E5.9943
G1 X169.908 Y193.598 E6.00038
G1 X169.395 Y193.426 E6.01833
G1 X168.977 Y193.274 E6.03309
G1 X168.439 Y193.062 E6.05227
G1 X168.293 Y193 E6.05754
G1 X167.75 Y192.752 E6.07734
G1 X167.324 Y192.543 E6.09308
G1 X166.661 Y192.188 E6.11803
G1 X166.254 Y191.949 E6.13369
G1 X165.913 Y191.74 E6.14696
G1 X165.335 Y191.36 E6.16991
G1 X165.163 Y191.239 E6.17689
G1 X164.801 Y190.973 E6.19179
G1 X164.484 Y190.73 E6.20504
G1 X163.964 Y190.305 E6.22733
G1 X163.819 Y190.179 E6.2337
G1 X163.416 Y189.812 E6.25178
G1 X163.063 Y189.473 E6.26802
G1 X162.602 Y189.002 E6.28989
G1 X162.494 Y188.885 E6.29517
G1 X162.223 Y188.581 E6.30868
G1 X162.062 Y188.393 E6.31689
G1 X161.593 Y187.805 E6.34184
G1 X161.175 Y187.243 E6.36508
G1 X160.635 Y186.447 E6.39699
G1 X160.467 Y186.174 E6.40763
G1 X160.202 Y185.718 E6.42513
G1 X160.072 Y185.482 E6.43407
G1 X159.736 Y184.82 E6.4587
G1 X159.5 Y184.313 E6.47725
G1 X159.307 Y183.874 E6.49316
G1 X159.226 Y183.678 E6.5002
G1 X158.983 Y183.032 E6.5231
G1 X158.911 Y182.821 E6.53049
G1 X158.778 Y182.404 E6.54501
G1 X158.715 Y182.192 E6.55235
G1 X158.535 Y181.509 E6.57578
G1 X158.368 Y180.777 E6.60069
G1 X158.177 Y179.69 E6.63731
G1 X158.139 Y179.384 E6.64754
G1 X158.098 Y178.995 E6.66052
G1 X158.087 Y178.87 E6.66468
G1 X158.047 Y178.133 E6.68917
G1 X158.03 Y177.3 E6.71681
G1 X158.056 Y176.301 E6.74997
G1 X158.069 Y176.118 E6.75605
G1 X158.12 Y175.584 E6.77385
G1 X158.173 Y175.144 E6.78855
G1 X158.271 Y174.491 E6.81046
G1 X158.31 Y174.277 E6.81768
G1 X158.404 Y173.819 E6.83319
G1 X158.477 Y173.497 E6.84414
G1 X158.721 Y172.6 E6.87498
G1 X158.893 Y172.059 E6.89382
G1 X159.02 Y171.683 E6.90698
G1 X159.106 Y171.443 E6.91544
G1 X159.335 Y170.858 E6.93629
G1 X159.489 Y170.499 E6.94925
G1 X159.592 Y170.268 E6.95764
G1 X159.953 Y169.533 E6.9848
G1 X160.092 Y169.275 E6.99453
G1 X160.333 Y168.851 E7.01071
G1 X160.44 Y168.672 E7.01763
G1 X160.762 Y168.165 E7.03755
G1 X161.15 Y167.59 E7.06057
G1 X161.456 Y167.159 E7.0781
G1 X161.779 Y166.745 E7.09552
G1 X161.933 Y166.557 E7.10359
G1 X162.285 Y166.148 E7.12149
G1 X162.571 Y165.832 E7.13563
G1 X163.009 Y165.376 E7.15661
G0 F6000 X163.275 Y165.647
G1 F1200 X163.402 Y165.522 E7.16252
G1 X163.767 Y165.18 E7.17911
G1 X164.063 Y164.915 E7.19229
G1 X164.51 Y164.536 E7.21174
G1 X164.69 Y164.392 E7.21939
G1 X165.094 Y164.084 E7.23624
G1 X165.373 Y163.882 E7.24767
G1 X165.9 Y163.525 E7.26879
G1 X166.312 Y163.263 E7.28499
G1 X166.586 Y163.094 E7.29567
G1 X166.719 Y163.015 E7.3008
G1 X167.248 Y162.721 E7.32088
G1 X167.433 Y162.625 E7.32779
G1 X167.9 Y162.397 E7.34503
G1 X168.306 Y162.211 E7.35985
G1 X169.129 Y161.875 E7.38934
G1 X169.557 Y161.721 E7.40443
G1 X169.991 Y161.576 E7.41961
G1 X170.557 Y161.414 E7.43915
G1 X171.23 Y161.242 E7.46219
G1 X171.848 Y161.104 E7.4832
G1 X172.009 Y161.073 E7.48864
G1 X172.594 Y160.977 E7.50831
G1 X172.794 Y160.95 E7.515
G1 X173.078 Y160.916 E7.52449
G1 X173.385 Y160.883 E7.53474
G1 X174.021 Y160.834 E7.5559
G1 X174.32 Y160.82 E7.56583
G1 X174.64 Y160.809 E7.57645
G1 X175.004 Y160.803 E7.58853
G1 X175.688 Y160.814 E7.61123
G1 X175.978 Y160.828 E7.62086
G1 X176.606 Y160.877 E7.64176
G1 X176.8 Y160.898 E7.64823
G1 X177.397 Y160.98 E7.66823
G1 X177.998 Y161.08 E7.68844
G1 X178.652 Y161.21 E7.71056
G1 X178.971 Y161.284 E7.72143
G1 X179.69 Y161.478 E7.74613
G1 X180.093 Y161.602 E7.76012
G1 X180.602 Y161.773 E7.77794
G1 X180.786 Y161.84 E7.78443
G1 X181.308 Y162.046 E7.80305
G1 X181.59 Y162.166 E7.81322
G1 X181.96 Y162.332 E7.82667
G1 X182.225 Y162.457 E7.83639
G1 X182.831 Y162.767 E7.85898
G1 X183.218 Y162.981 E7.87365
G1 X183.694 Y163.261 E7.89197
G1 X183.84 Y163.352 E7.89768
G1 X184.272 Y163.636 E7.91483
G1 X184.647 Y163.896 E7.92997
G1 X185.109 Y164.236 E7.949
G1 X185.257 Y164.351 E7.95522
G1 X185.649 Y164.67 E7.97199
G1 X185.97 Y164.945 E7.98601
G1 X186.51 Y165.442 E8.01036
G1 X186.71 Y165.639 E8.01967
