;FLAVOR:Marlin
;TIME:4241
;Filament used: 3.25752m
;Layer height: 0.2
;MINX:127.683
;MINY:132.183
;MINZ:0.2
;MAXX:222.317
;MAXY:226.817
;MAXZ:9
;Generated with Cura_SteamEngine 4.10.0
M140 S50
M105
M190 S50
M104 S245
M105
M109 S245
M82 ;absolute extrusion mode
M201 X500.00 Y500.00 Z100.00 E5000.00 ;Setup machine max acceleration
M203 X500.00 Y500.00 Z10.00 E50.00 ;Setup machine max feedrate
M204 P500.00 R1000.00 T500.00 ;Setup Print/Retract/Travel acceleration
M205 X8.00 Y8.00 Z0.40 E5.00 ;Setup Jerk
M220 S100 ;Reset Feedrate
M221 S100 ;Reset Flowrate

G28 ;Home
M420 S1 Z2 ;Enable ABL using saved Mesh and Fade Height

G92 E0 ;Reset Extruder
G1 Z2.0 F3000 ;Move Z Axis up
G1 X10.1 Y20 Z0.28 F5000.0 ;Move to start position
G1 X10.1 Y200.0 Z0.28 F1500.0 E15 ;Draw the first line
G1 X10.4 Y200.0 Z0.28 F5000.0 ;Move to side a little
G1 X10.4 Y20 Z0.28 F1500.0 E30 ;Draw the second line
G92 E0 ;Reset Extruder
G1 Z2.0 F3000 ;Move Z Axis up

G92 E0
G92 E0
G1 F1500 E-7.5
;LAYER_COUNT:45
;LAYER:0
M107
G0 F6000 X161.804 Y138.286 Z0.2
;TYPE:SKIRT
G1 F1500 E0
G1 F1200 X162.263 Y137.782 E0.02262
G1 X162.697 Y137.334 E0.04331
G1 X162.935 Y137.096 E0.05448
G1 X163.229 Y136.81 E0.06809
G1 X163.938 Y136.175 E0.09966
G1 X164.48 Y135.757 E0.12237
G1 X164.985 Y135.391 E0.14306
G1 X165.275 Y135.188 E0.15481
G1 X165.623 Y134.952 E0.16876
G1 X166.432 Y134.451 E0.20033
G1 X167.003 Y134.152 E0.22171
G1 X167.559 Y133.88 E0.24225
G1 X167.915 Y133.713 E0.25529
G1 X168.311 Y133.536 E0.26968
G1 X169.195 Y133.185 E0.30124
G1 X169.817 Y132.987 E0.3229
G1 X170.418 Y132.815 E0.34364
G1 X170.768 Y132.721 E0.35566
G1 X171.165 Y132.621 E0.36924
G1 X172.097 Y132.428 E0.40082
G1 X172.741 Y132.341 E0.42238
G1 X173.375 Y132.274 E0.44353
G1 X173.761 Y132.24 E0.45639
G1 X174.168 Y132.211 E0.46992
G1 X175.119 Y132.183 E0.50149
G1 X175.773 Y132.21 E0.5232
G1 X176.423 Y132.256 E0.54482
G1 X176.756 Y132.285 E0.55591
G1 X177.144 Y132.324 E0.56885
G1 X178.086 Y132.459 E0.60042
G1 X178.776 Y132.61 E0.62386
G1 X179.384 Y132.763 E0.64466
G1 X179.686 Y132.843 E0.65502
G1 X180.095 Y132.958 E0.66912
G1 X180.999 Y133.254 E0.70068
G1 X181.655 Y133.523 E0.7242
G1 X182.216 Y133.774 E0.74459
G1 X182.517 Y133.914 E0.7556
G1 X182.9 Y134.099 E0.76972
G1 X183.739 Y134.548 E0.80129
G1 X184.313 Y134.912 E0.82384
G1 X184.812 Y135.249 E0.84381
G1 X185.106 Y135.454 E0.8557
G1 X185.47 Y135.717 E0.8706
G1 X186.218 Y136.307 E0.90221
G1 X186.715 Y136.76 E0.92452
G1 X187.151 Y137.182 E0.94465
G1 X187.388 Y137.418 E0.95575
G1 X187.686 Y137.724 E0.96992
G1 X188.321 Y138.433 E1.0015
G1 X188.744 Y138.981 E1.02446
G1 X189.115 Y139.493 E1.04544
G1 X189.312 Y139.774 E1.05683
G1 X190.019 Y140.814 E1.09855
G1 X191.531 Y142.974 E1.18602
G1 X193.007 Y144.961 E1.26814
G1 X194.567 Y146.943 E1.35183
G1 X196.162 Y148.853 E1.43438
G1 X197.83 Y150.74 E1.51794
G1 X199.544 Y152.573 E1.6012
G1 X201.296 Y154.343 E1.68383
G1 X203.123 Y156.088 E1.76765
G1 X204.982 Y157.764 E1.85069
G1 X206.906 Y159.402 E1.93452
G1 X208.855 Y160.971 E2.01753
G1 X210.816 Y162.458 E2.09918
G1 X213.888 Y164.625 E2.2239
G1 X214.823 Y165.257 E2.26135
G1 X215.111 Y165.458 E2.273
G1 X215.467 Y165.715 E2.28757
G1 X216.214 Y166.304 E2.31913
G1 X216.715 Y166.76 E2.3416
G1 X217.153 Y167.184 E2.36183
G1 X217.391 Y167.421 E2.37297
G1 X217.687 Y167.725 E2.38705
G1 X218.321 Y168.434 E2.4186
G1 X218.739 Y168.975 E2.44129
G1 X219.104 Y169.478 E2.4619
G1 X219.316 Y169.779 E2.47412
G1 X219.553 Y170.129 E2.48814
G1 X220.053 Y170.939 E2.51972
G1 X220.348 Y171.503 E2.54084
G1 X220.62 Y172.059 E2.56138
G1 X220.783 Y172.407 E2.57412
G1 X220.959 Y172.8 E2.58841
G1 X221.312 Y173.684 E2.61999
G1 X221.511 Y174.311 E2.64182
G1 X221.684 Y174.915 E2.66266
G1 X221.774 Y175.248 E2.67411
G1 X221.875 Y175.646 E2.68773
G1 X222.07 Y176.578 E2.71932
G1 X222.162 Y177.255 E2.74199
G1 X222.226 Y177.867 E2.7624
G1 X222.257 Y178.227 E2.77439
G1 X222.288 Y178.655 E2.78863
G1 X222.317 Y179.606 E2.82019
G1 X222.29 Y180.273 E2.84234
G1 X222.244 Y180.923 E2.86396
G1 X222.215 Y181.256 E2.87505
G1 X222.176 Y181.644 E2.88799
G1 X222.041 Y182.586 E2.91956
G1 X221.89 Y183.276 E2.94299
G1 X221.737 Y183.884 E2.96379
G1 X221.655 Y184.193 E2.9744
G1 X221.54 Y184.601 E2.98846
G1 X221.244 Y185.505 E3.02002
G1 X220.98 Y186.147 E3.04305
G1 X220.729 Y186.709 E3.06347
G1 X220.586 Y187.017 E3.07474
G1 X220.401 Y187.4 E3.08885
G1 X219.952 Y188.239 E3.12042
G1 X219.588 Y188.813 E3.14297
G1 X219.251 Y189.312 E3.16295
G1 X219.046 Y189.606 E3.17484
G1 X218.783 Y189.97 E3.18974
G1 X218.193 Y190.718 E3.22134
G1 X217.739 Y191.216 E3.2437
G1 X217.314 Y191.655 E3.26397
G1 X217.078 Y191.892 E3.27507
G1 X216.775 Y192.187 E3.2891
G1 X216.065 Y192.822 E3.3207
G1 X215.519 Y193.244 E3.3436
G1 X215.007 Y193.615 E3.36457
G1 X214.726 Y193.812 E3.37596
G1 X213.686 Y194.519 E3.41768
G1 X211.526 Y196.031 E3.50516
G1 X209.539 Y197.507 E3.58728
G1 X207.556 Y199.068 E3.67101
G1 X205.647 Y200.662 E3.75352
G1 X203.76 Y202.33 E3.83707
G1 X201.927 Y204.044 E3.92033
G1 X200.157 Y205.796 E4.00296
G1 X198.394 Y207.643 E4.08767
G1 X196.752 Y209.463 E4.16899
G1 X195.098 Y211.406 E4.25365
G1 X193.545 Y213.335 E4.33581
G1 X192.039 Y215.322 E4.41853
G1 X189.874 Y218.39 E4.54311
G1 X189.245 Y219.321 E4.58039
G1 X189.042 Y219.611 E4.59213
G1 X188.785 Y219.967 E4.6067
G1 X188.196 Y220.714 E4.63826
G1 X187.737 Y221.218 E4.66087
G1 X187.303 Y221.666 E4.68157
G1 X187.065 Y221.905 E4.69276
G1 X186.772 Y222.19 E4.70632
G1 X186.062 Y222.824 E4.7379
G1 X185.524 Y223.24 E4.76046
G1 X185.018 Y223.607 E4.7812
G1 X184.725 Y223.812 E4.79306
G1 X184.377 Y224.048 E4.80701
G1 X183.568 Y224.549 E4.83858
G1 X182.997 Y224.848 E4.85997
G1 X182.441 Y225.12 E4.8805
G1 X182.095 Y225.282 E4.89318
G1 X181.7 Y225.459 E4.90754
G1 X180.816 Y225.812 E4.93912
G1 X180.18 Y226.014 E4.96126
G1 X179.578 Y226.186 E4.98203
G1 X179.232 Y226.279 E4.99392
G1 X178.835 Y226.379 E5.0075
G1 X177.903 Y226.572 E5.03908
G1 X177.259 Y226.659 E5.06064
G1 X176.625 Y226.726 E5.08179
G1 X176.241 Y226.76 E5.09458
G1 X175.835 Y226.789 E5.10808
G1 X174.884 Y226.817 E5.13965
G1 X174.229 Y226.79 E5.1614
G1 X173.578 Y226.744 E5.18305
G1 X173.244 Y226.715 E5.19417
G1 X172.856 Y226.676 E5.20711
G1 X171.914 Y226.541 E5.23868
G1 X171.224 Y226.39 E5.26212
G1 X170.616 Y226.237 E5.28292
G1 X170.314 Y226.157 E5.29328
G1 X169.905 Y226.042 E5.30738
G1 X169.001 Y225.746 E5.33894
G1 X168.345 Y225.477 E5.36246
G1 X167.784 Y225.226 E5.38285
G1 X167.483 Y225.086 E5.39386
G1 X167.1 Y224.901 E5.40797
G1 X166.261 Y224.452 E5.43954
G1 X165.687 Y224.088 E5.46209
G1 X165.188 Y223.751 E5.48207
G1 X164.894 Y223.546 E5.49396
G1 X164.53 Y223.283 E5.50886
G1 X163.782 Y222.693 E5.54047
G1 X163.282 Y222.237 E5.56292
G1 X162.834 Y221.803 E5.58361
G1 X162.596 Y221.565 E5.59478
G1 X162.31 Y221.271 E5.60839
G1 X161.675 Y220.562 E5.63997
G1 X161.256 Y220.019 E5.66272
G1 X160.885 Y219.507 E5.6837
G1 X160.688 Y219.226 E5.69508
G1 X159.981 Y218.186 E5.73681
G1 X158.469 Y216.026 E5.82428
G1 X156.993 Y214.039 E5.9064
G1 X155.432 Y212.056 E5.99013
G1 X153.838 Y210.147 E6.07264
G1 X152.17 Y208.26 E6.1562
G1 X150.456 Y206.427 E6.23946
G1 X148.704 Y204.657 E6.32208
G1 X146.857 Y202.894 E6.40679
G1 X145.037 Y201.252 E6.48812
G1 X143.094 Y199.598 E6.57278
G1 X141.165 Y198.045 E6.65494
G1 X139.178 Y196.539 E6.73766
G1 X136.11 Y194.374 E6.86223
G1 X135.179 Y193.745 E6.89951
G1 X134.889 Y193.542 E6.91125
G1 X134.533 Y193.285 E6.92582
G1 X133.786 Y192.696 E6.95738
G1 X133.282 Y192.237 E6.98
G1 X132.834 Y191.803 E7.00069
G1 X132.596 Y191.565 E7.01186
G1 X132.31 Y191.271 E7.02547
G1 X131.675 Y190.562 E7.05704
G1 X131.257 Y190.02 E7.07975
G1 X130.891 Y189.515 E7.10045
G1 X130.688 Y189.225 E7.11219
G1 X130.452 Y188.877 E7.12614
G1 X129.951 Y188.068 E7.15771
G1 X129.646 Y187.485 E7.17954
G1 X129.368 Y186.915 E7.20058
G1 X129.21 Y186.577 E7.21296
G1 X129.039 Y186.195 E7.22684
G1 X128.687 Y185.311 E7.25841
G1 X128.487 Y184.683 E7.28028
G1 X128.315 Y184.082 E7.30102
G1 X128.226 Y183.752 E7.31236
G1 X128.125 Y183.354 E7.32598
G1 X127.93 Y182.422 E7.35757
G1 X127.838 Y181.742 E7.38034
G1 X127.772 Y181.109 E7.40145
G1 X127.74 Y180.739 E7.41377
G1 X127.711 Y180.332 E7.42731
G1 X127.683 Y179.381 E7.45887
G1 X127.71 Y178.727 E7.48059
G1 X127.756 Y178.077 E7.50221
G1 X127.785 Y177.744 E7.5133
G1 X127.824 Y177.356 E7.52624
G1 X127.959 Y176.414 E7.55781
G1 X128.108 Y175.729 E7.58107
G1 X128.264 Y175.108 E7.60231
G1 X128.353 Y174.777 E7.61368
G1 X128.465 Y174.382 E7.6273
G1 X128.763 Y173.478 E7.65888
G1 X129.02 Y172.853 E7.6813
G1 X129.271 Y172.291 E7.70172
G1 X129.414 Y171.983 E7.71299
G1 X129.599 Y171.6 E7.7271
G1 X130.048 Y170.761 E7.75867
G1 X130.412 Y170.187 E7.78122
G1 X130.749 Y169.688 E7.8012
G1 X130.954 Y169.394 E7.81309
G1 X131.217 Y169.03 E7.82799
G1 X131.807 Y168.282 E7.8596
G1 X132.263 Y167.782 E7.88205
G1 X132.697 Y167.334 E7.90274
G1 X132.935 Y167.096 E7.91391
G1 X133.229 Y166.81 E7.92752
G1 X133.938 Y166.175 E7.95909
G1 X134.481 Y165.756 E7.98185
G1 X134.993 Y165.385 E8.00283
G1 X135.274 Y165.188 E8.01421
G1 X136.314 Y164.481 E8.05593
G1 X138.474 Y162.969 E8.14341
G1 X140.461 Y161.493 E8.22553
G1 X142.444 Y159.932 E8.30926
G1 X144.353 Y158.338 E8.39177
G1 X146.24 Y156.67 E8.47533
G1 X148.073 Y154.956 E8.55858
G1 X149.843 Y153.204 E8.64121
G1 X151.606 Y151.357 E8.72592
G1 X153.248 Y149.537 E8.80725
G1 X154.902 Y147.594 E8.8919
G1 X156.455 Y145.665 E8.97406
G1 X157.961 Y143.678 E9.05678
G1 X160.126 Y140.61 E9.18136
G1 X160.755 Y139.679 E9.21864
G1 X160.958 Y139.389 E9.23038
G1 X161.215 Y139.033 E9.24495
G1 X161.804 Y138.286 E9.27651
G0 F6000 X162.102 Y138.521
G1 F1200 X162.536 Y138.046 E9.29786
G1 X162.97 Y137.598 E9.31855
G1 X163.2 Y137.368 E9.32934
G1 X163.494 Y137.082 E9.34295
G1 X164.192 Y136.459 E9.37399
G1 X164.703 Y136.065 E9.3954
G1 X165.208 Y135.699 E9.41609
G1 X165.488 Y135.502 E9.42745
G1 X165.836 Y135.266 E9.4414
G1 X166.632 Y134.775 E9.47243
G1 X167.17 Y134.493 E9.49258
G1 X167.726 Y134.221 E9.51311
G1 X168.07 Y134.06 E9.52572
G1 X168.466 Y133.883 E9.54011
G1 X169.336 Y133.538 E9.57116
G1 X169.921 Y133.353 E9.59151
G1 X170.522 Y133.181 E9.61225
G1 X170.86 Y133.09 E9.62387
G1 X171.257 Y132.99 E9.63745
G1 X172.174 Y132.8 E9.66852
G1 X172.781 Y132.719 E9.68884
G1 X173.415 Y132.652 E9.70999
G1 X173.788 Y132.619 E9.72241
G1 X174.195 Y132.59 E9.73595
G1 X175.13 Y132.563 E9.76698
G1 X175.746 Y132.589 E9.78744
G1 X176.396 Y132.635 E9.80905
G1 X176.718 Y132.663 E9.81978
G1 X177.106 Y132.702 E9.83272
G1 X178.032 Y132.835 E9.86375
G1 X178.683 Y132.978 E9.88587
G1 X179.291 Y133.131 E9.90667
G1 X179.583 Y133.209 E9.91669
G1 X179.992 Y133.324 E9.93079
G1 X180.881 Y133.615 E9.96182
G1 X181.5 Y133.87 E9.98403
G1 X182.061 Y134.121 E10.00442
G1 X182.352 Y134.256 E10.01507
G1 X182.735 Y134.441 E10.02918
G1 X183.559 Y134.884 E10.06022
G1 X184.1 Y135.227 E10.08147
G1 X184.599 Y135.564 E10.10145
G1 X184.884 Y135.762 E10.11296
G1 X185.248 Y136.025 E10.12786
G1 X185.982 Y136.605 E10.1589
G1 X186.45 Y137.033 E10.17994
G1 X186.886 Y137.455 E10.20007
G1 X187.116 Y137.683 E10.21081
G1 X187.414 Y137.989 E10.22498
G1 X188.037 Y138.687 E10.25602
G1 X188.436 Y139.204 E10.27769
G1 X188.807 Y139.716 E10.29867
G1 X188.997 Y139.987 E10.30965
G1 X189.72 Y141.052 E10.35235
G1 X191.202 Y143.168 E10.43806
G1 X192.703 Y145.189 E10.52158
G1 X194.281 Y147.192 E10.60618
G1 X195.869 Y149.095 E10.68841
G1 X197.555 Y151.001 E10.77284
G1 X199.266 Y152.832 E10.85598
G1 X201.032 Y154.617 E10.93929
G1 X202.876 Y156.377 E11.02386
G1 X204.732 Y158.05 E11.10676
G1 X206.668 Y159.699 E11.19113
G1 X208.582 Y161.24 E11.27265
G1 X210.605 Y162.773 E11.35686
G1 X213.667 Y164.934 E11.4812
G1 X214.61 Y165.571 E11.51896
G1 X214.888 Y165.766 E11.53023
G1 X215.244 Y166.023 E11.54479
G1 X215.979 Y166.602 E11.57583
G1 X216.451 Y167.033 E11.59704
G1 X216.889 Y167.457 E11.61727
G1 X217.118 Y167.686 E11.62801
G1 X217.414 Y167.99 E11.64209
G1 X218.038 Y168.688 E11.67315
G1 X218.432 Y169.198 E11.69453
G1 X218.797 Y169.701 E11.71515
G1 X219.001 Y169.992 E11.72694
G1 X219.238 Y170.342 E11.74096
G1 X219.729 Y171.139 E11.77202
G1 X220.007 Y171.67 E11.79191
G1 X220.279 Y172.226 E11.81244
G1 X220.437 Y172.562 E11.82476
G1 X220.613 Y172.955 E11.83905
G1 X220.958 Y173.825 E11.8701
G1 X221.146 Y174.416 E11.89067
G1 X221.319 Y175.02 E11.91152
G1 X221.406 Y175.342 E11.92258
G1 X221.507 Y175.74 E11.93621
G1 X221.698 Y176.656 E11.96725
G1 X221.784 Y177.294 E11.98861
G1 X221.848 Y177.906 E12.00902
G1 X221.878 Y178.254 E12.02061
G1 X221.909 Y178.682 E12.03485
G1 X221.937 Y179.617 E12.06588
G1 X221.911 Y180.246 E12.08677
G1 X221.865 Y180.896 E12.10839
G1 X221.837 Y181.218 E12.11911
G1 X221.798 Y181.606 E12.13205
G1 X221.665 Y182.532 E12.16309
G1 X221.522 Y183.183 E12.1852
G1 X221.369 Y183.791 E12.206
G1 X221.289 Y184.09 E12.21627
G1 X221.174 Y184.498 E12.23033
G1 X220.882 Y185.387 E12.26138
G1 X220.633 Y185.992 E12.28308
G1 X220.382 Y186.554 E12.3035
G1 X220.244 Y186.852 E12.3144
G1 X220.059 Y187.235 E12.32851
G1 X219.616 Y188.059 E12.35955
G1 X219.273 Y188.6 E12.3808
G1 X218.936 Y189.099 E12.40078
G1 X218.738 Y189.384 E12.41229
G1 X218.475 Y189.748 E12.42719
G1 X217.895 Y190.482 E12.45823
G1 X217.466 Y190.951 E12.47931
G1 X217.041 Y191.39 E12.49959
G1 X216.813 Y191.62 E12.51033
G1 X216.51 Y191.915 E12.52436
G1 X215.812 Y192.538 E12.5554
G1 X215.296 Y192.936 E12.57702
G1 X214.784 Y193.307 E12.598
G1 X214.513 Y193.497 E12.60898
G1 X213.448 Y194.22 E12.65169
G1 X211.332 Y195.702 E12.73739
G1 X209.289 Y197.22 E12.82184
G1 X207.332 Y198.761 E12.90448
G1 X205.401 Y200.372 E12.98791
G1 X203.499 Y202.055 E13.07217
G1 X201.668 Y203.766 E13.15531
G1 X199.883 Y205.532 E13.23862
G1 X198.123 Y207.376 E13.32319
G1 X196.451 Y209.23 E13.40602
G1 X194.813 Y211.154 E13.48985
G1 X193.233 Y213.117 E13.57345
G1 X191.747 Y215.077 E13.65506
G1 X189.542 Y218.203 E13.78197
G1 X188.93 Y219.108 E13.81822
G1 X188.734 Y219.388 E13.82956
G1 X188.477 Y219.744 E13.84412
G1 X187.898 Y220.479 E13.87517
G1 X187.464 Y220.954 E13.89651
G1 X187.03 Y221.402 E13.91721
G1 X186.8 Y221.632 E13.928
G1 X186.507 Y221.917 E13.94156
G1 X185.809 Y222.54 E13.9726
G1 X185.301 Y222.932 E13.99389
G1 X184.795 Y223.299 E14.01463
G1 X184.512 Y223.498 E14.0261
G1 X184.164 Y223.734 E14.04005
G1 X183.368 Y224.225 E14.07108
G1 X182.83 Y224.507 E14.09124
G1 X182.274 Y224.779 E14.11177
G1 X181.94 Y224.936 E14.12402
G1 X181.545 Y225.113 E14.13838
G1 X180.675 Y225.458 E14.16943
G1 X180.075 Y225.649 E14.19032
G1 X179.473 Y225.821 E14.21109
G1 X179.14 Y225.91 E14.22252
G1 X178.743 Y226.01 E14.23611
G1 X177.826 Y226.2 E14.26718
G1 X177.219 Y226.281 E14.28749
G1 X176.585 Y226.348 E14.30865
G1 X176.214 Y226.381 E14.321
G1 X175.808 Y226.41 E14.33451
G1 X174.873 Y226.437 E14.36554
G1 X174.256 Y226.411 E14.38603
G1 X173.605 Y226.365 E14.40768
G1 X173.282 Y226.337 E14.41844
G1 X172.894 Y226.298 E14.43137
G1 X171.968 Y226.165 E14.46241
G1 X171.317 Y226.022 E14.48452
G1 X170.709 Y225.869 E14.50533
G1 X170.417 Y225.791 E14.51535
G1 X170.008 Y225.676 E14.52945
G1 X169.119 Y225.385 E14.56048
G1 X168.5 Y225.13 E14.58269
G1 X167.939 Y224.879 E14.60308
G1 X167.648 Y224.744 E14.61373
G1 X167.265 Y224.559 E14.62784
G1 X166.441 Y224.116 E14.65888
G1 X165.9 Y223.773 E14.68013
G1 X165.401 Y223.436 E14.70011
G1 X165.116 Y223.238 E14.71162
G1 X164.752 Y222.975 E14.72652
G1 X164.018 Y222.395 E14.75755
G1 X163.546 Y221.964 E14.77876
G1 X163.098 Y221.53 E14.79945
G1 X162.868 Y221.3 E14.81025
G1 X162.582 Y221.006 E14.82385
G1 X161.959 Y220.308 E14.85489
G1 X161.564 Y219.796 E14.87635
G1 X161.193 Y219.284 E14.89733
G1 X161.003 Y219.013 E14.90831
G1 X160.28 Y217.948 E14.95101
G1 X158.798 Y215.832 E15.03672
G1 X157.28 Y213.789 E15.12116
G1 X155.739 Y211.832 E15.2038
G1 X154.128 Y209.901 E15.28724
G1 X152.445 Y207.999 E15.3715
G1 X150.734 Y206.168 E15.45464
G1 X148.968 Y204.383 E15.53794
G1 X147.124 Y202.623 E15.62252
G1 X145.27 Y200.951 E15.70535
G1 X143.346 Y199.313 E15.78918
G1 X141.383 Y197.733 E15.87278
G1 X139.423 Y196.247 E15.95438
G1 X136.297 Y194.042 E16.0813
G1 X135.392 Y193.43 E16.11754
G1 X135.112 Y193.234 E16.12888
G1 X134.756 Y192.977 E16.14345
