;FLAVOR:Marlin
;TIME:2554
;Filament used: 1.68608m
;Layer height: 0.2
;MINX:75.232
;MINY:147.97
;MINZ:0.2
;MAXX:204.33
;MAXY:206.63
;MAXZ:4.6
;Generated with Cura_SteamEngine 4.10.0
M140 S50
M105
M190 S50
M104 S245
M105
M109 S245
M82 ;absolute extrusion mode
M201 X500.00 Y500.00 Z100.00 E5000.00 ;Setup machine max acceleration
M203 X500.00 Y500.00 Z10.00 E50.00 ;Setup machine max feedrate
M204 P500.00 R1000.00 T500.00 ;Setup Print/Retract/Travel acceleration
M205 X8.00 Y8.00 Z0.40 E5.00 ;Setup Jerk
M220 S100 ;Reset Feedrate
M221 S100 ;Reset Flowrate

G28 ;Home
M420 S1 Z2 ;Enable ABL using saved Mesh and Fade Height

G92 E0 ;Reset Extruder
G1 Z2.0 F3000 ;Move Z Axis up
G1 X10.1 Y20 Z0.28 F5000.0 ;Move to start position
G1 X10.1 Y200.0 Z0.28 F1500.0 E15 ;Draw the first line
G1 X10.4 Y200.0 Z0.28 F5000.0 ;Move to side a little
G1 X10.4 Y20 Z0.28 F1500.0 E30 ;Draw the second line
G92 E0 ;Reset Extruder
G1 Z2.0 F3000 ;Move Z Axis up

G92 E0
G92 E0
G1 F1500 E-7.5
;LAYER_COUNT:23
;LAYER:0
M107
G0 F6000 X85.7 Y158.622 Z0.2
;TYPE:SKIRT
G1 F1500 E0
G1 F1200 X86.016 Y158.456 E0.01184
G1 X86.565 Y158.179 E0.03224
G1 X87.227 Y157.859 E0.05664
G1 X88.497 Y157.338 E0.10218
G1 X88.866 Y157.212 E0.11512
G1 X89.347 Y157.057 E0.13188
G1 X90.188 Y156.8 E0.16106
G1 X91.426 Y156.498 E0.20334
G1 X91.713 Y156.445 E0.21302
G1 X92.026 Y156.392 E0.22355
G1 X92.595 Y156.305 E0.24265
G1 X93.314 Y156.205 E0.26673
G1 X94.559 Y156.101 E0.30818
G1 X94.846 Y156.093 E0.31771
G1 X95.188 Y156.089 E0.32905
G1 X95.813 Y156.092 E0.34979
G1 X96.523 Y156.106 E0.37335
G1 X96.973 Y156.123 E0.38829
G1 X97.283 Y156.142 E0.39859
G1 X97.783 Y156.179 E0.41523
G1 X108.547 Y157.098 E0.77365
G1 X111.076 Y157.278 E0.85776
G1 X113.602 Y157.385 E0.94164
G1 X116.115 Y157.422 E1.02502
G1 X118.618 Y157.387 E1.10808
G1 X121.11 Y157.282 E1.19083
G1 X123.64 Y157.103 E1.27497
G1 X126.133 Y156.857 E1.35808
G1 X128.585 Y156.543 E1.4401
G1 X131.091 Y156.151 E1.52425
G1 X133.559 Y155.693 E1.60753
G1 X135.983 Y155.172 E1.68979
G1 X138.425 Y154.574 E1.7732
G1 X140.871 Y153.901 E1.85737
G1 X143.257 Y153.172 E1.94014
G1 X145.623 Y152.374 E2.02298
G1 X147.995 Y151.5 E2.10685
G1 X150.308 Y150.572 E2.18953
G1 X152.409 Y149.66 E2.26552
G1 X153.684 Y149.092 E2.31183
G1 X153.688 Y149.101 E2.31216
G1 X154.109 Y148.912 E2.32747
G1 X155.284 Y148.516 E2.3686
G1 X155.591 Y148.431 E2.37917
G1 X156.518 Y148.216 E2.41074
G1 X157.466 Y148.078 E2.44253
G1 X157.849 Y148.039 E2.4553
G1 X158.83 Y147.982 E2.4879
G1 X159.741 Y147.97 E2.51813
G1 X190.293 Y147.97 E3.53175
G1 X191.148 Y147.981 E3.56012
G1 X191.788 Y148.009 E3.58137
G1 X192.013 Y148.025 E3.58886
G1 X192.383 Y148.057 E3.60118
G1 X193.326 Y148.187 E3.63276
G1 X194.119 Y148.361 E3.6597
G1 X194.497 Y148.458 E3.67264
G1 X195.408 Y148.733 E3.70421
G1 X196.297 Y149.085 E3.73594
G1 X196.501 Y149.176 E3.74335
G1 X196.925 Y149.375 E3.75889
G1 X197.763 Y149.828 E3.79049
G1 X198.277 Y150.154 E3.81069
G1 X198.569 Y150.35 E3.82235
G1 X199.337 Y150.913 E3.85395
G1 X200.151 Y151.632 E3.88998
G1 X200.399 Y151.873 E3.90145
G1 X201.053 Y152.564 E3.93302
G1 X201.692 Y153.37 E3.96714
G1 X201.899 Y153.657 E3.97888
G1 X202.423 Y154.452 E4.01047
G1 X202.923 Y155.379 E4.04542
G1 X203.15 Y155.856 E4.06294
G1 X203.512 Y156.736 E4.09451
G1 X203.772 Y157.543 E4.12264
G1 X203.859 Y157.853 E4.13332
G1 X204.077 Y158.779 E4.16488
G1 X204.221 Y159.76 E4.19778
G1 X204.26 Y160.141 E4.21049
G1 X204.318 Y161.128 E4.24329
G1 X204.33 Y162.041 E4.27358
G1 X204.329 Y192.757 E5.29265
G1 X204.319 Y193.448 E5.31557
G1 X204.293 Y194.065 E5.33606
G1 X204.278 Y194.282 E5.34328
G1 X204.241 Y194.708 E5.35746
G1 X204.108 Y195.651 E5.38906
G1 X203.953 Y196.365 E5.4133
G1 X203.86 Y196.735 E5.42596
G1 X203.59 Y197.647 E5.45751
G1 X203.211 Y198.606 E5.49172
G1 X203.116 Y198.818 E5.49943
G1 X202.925 Y199.225 E5.51435
G1 X202.472 Y200.063 E5.54595
G1 X202.156 Y200.563 E5.56558
G1 X201.96 Y200.856 E5.57727
G1 X201.398 Y201.624 E5.60884
G1 X200.652 Y202.468 E5.64622
G1 X200.411 Y202.715 E5.65767
G1 X199.719 Y203.368 E5.68923
G1 X198.93 Y203.992 E5.72261
G1 X198.643 Y204.199 E5.73435
G1 X197.848 Y204.723 E5.76594
G1 X196.921 Y205.223 E5.80088
G1 X196.615 Y205.37 E5.81214
G1 X196.087 Y205.607 E5.83134
G1 X194.741 Y206.076 E5.87863
G1 X194.437 Y206.161 E5.88911
G1 X193.51 Y206.379 E5.9207
G1 X192.534 Y206.522 E5.95343
G1 X192.151 Y206.561 E5.9662
G1 X191.17 Y206.618 E5.9988
G1 X190.259 Y206.63 E6.02903
G1 X159.543 Y206.629 E7.04809
G1 X158.852 Y206.619 E7.07102
G1 X158.212 Y206.591 E7.09227
G1 X157.987 Y206.575 E7.09976
G1 X157.617 Y206.543 E7.11208
G1 X156.674 Y206.413 E7.14366
G1 X155.881 Y206.239 E7.17059
G1 X155.503 Y206.142 E7.18354
G1 X154.592 Y205.867 E7.21511
G1 X153.703 Y205.515 E7.24683
G1 X153.499 Y205.424 E7.25425
G1 X153.185 Y205.278 E7.26573
G1 X152.032 Y204.72 E7.30823
G1 X151.504 Y204.456 E7.32782
G1 X149.219 Y203.392 E7.41144
G1 X146.924 Y202.402 E7.49437
G1 X144.59 Y201.47 E7.57775
G1 X142.227 Y200.607 E7.66121
G1 X139.881 Y199.823 E7.74327
G1 X137.455 Y199.088 E7.82737
G1 X135.051 Y198.433 E7.91004
G1 X132.622 Y197.844 E7.99296
G1 X130.11 Y197.309 E8.07817
G1 X127.713 Y196.871 E8.15901
G1 X125.188 Y196.482 E8.24377
G1 X122.722 Y196.174 E8.32622
G1 X120.254 Y195.935 E8.40849
G1 X117.706 Y195.761 E8.49322
G1 X115.213 Y195.662 E8.57599
G1 X112.705 Y195.633 E8.65921
G1 X110.231 Y195.675 E8.7413
G1 X107.666 Y195.79 E8.82648
G1 X105.362 Y195.957 E8.90312
G1 X97.812 Y196.6 E9.15452
G1 X97.113 Y196.65 E9.17777
G1 X96.664 Y196.674 E9.19268
G1 X96.343 Y196.684 E9.20334
G1 X95.762 Y196.693 E9.22262
G1 X95.474 Y196.693 E9.23217
G1 X94.771 Y196.686 E9.2555
G1 X93.545 Y196.608 E9.29625
G1 X93.251 Y196.573 E9.30608
G1 X92.933 Y196.53 E9.31672
G1 X92.561 Y196.475 E9.3292
G1 X91.616 Y196.319 E9.36097
G1 X90.353 Y196.034 E9.40393
G1 X90.078 Y195.955 E9.41342
G1 X89.794 Y195.869 E9.42327
G1 X89.185 Y195.675 E9.44447
G1 X88.532 Y195.456 E9.46732
G1 X87.339 Y194.979 E9.50995
G1 X87.08 Y194.858 E9.51944
G1 X86.809 Y194.727 E9.52942
G1 X86.268 Y194.455 E9.54951
G1 X85.636 Y194.126 E9.57315
G1 X84.521 Y193.462 E9.6162
G1 X84.277 Y193.297 E9.62598
G1 X84.026 Y193.121 E9.63615
G1 X83.535 Y192.768 E9.65621
G1 X82.968 Y192.347 E9.67964
G1 X81.99 Y191.532 E9.72188
G1 X81.734 Y191.293 E9.7335
G1 X81.471 Y191.039 E9.74563
G1 X81.119 Y190.686 E9.76217
G1 X80.611 Y190.166 E9.78628
G1 X79.815 Y189.261 E9.82627
G1 X79.633 Y189.03 E9.83603
G1 X79.386 Y188.704 E9.8496
G1 X79.048 Y188.239 E9.86867
G1 X78.622 Y187.636 E9.89316
G1 X77.955 Y186.571 E9.93486
G1 X77.8 Y186.29 E9.9455
G1 X77.639 Y185.988 E9.95686
G1 X77.372 Y185.463 E9.9764
G1 X77.062 Y184.832 E9.99972
G1 X76.58 Y183.698 E10.0406
G1 X76.485 Y183.436 E10.04985
G1 X76.371 Y183.108 E10.06137
G1 X76.179 Y182.517 E10.08199
G1 X75.965 Y181.823 E10.10608
G1 X75.666 Y180.625 E10.14705
G1 X75.615 Y180.36 E10.156
G1 X75.556 Y180.023 E10.16735
G1 X75.457 Y179.399 E10.18831
G1 X75.358 Y178.711 E10.21137
G1 X75.248 Y177.455 E10.2532
G1 X75.238 Y177.139 E10.26369
G1 X75.232 Y176.781 E10.27557
G1 X75.233 Y176.228 E10.29392
G1 X75.243 Y175.53 E10.31708
G1 X75.273 Y174.857 E10.33943
G1 X75.339 Y174.2 E10.36133
G1 X75.373 Y173.939 E10.37007
G1 X75.414 Y173.654 E10.37962
G1 X75.514 Y173.025 E10.40075
G1 X75.63 Y172.354 E10.42334
G1 X75.941 Y171.031 E10.46843
G1 X76.045 Y170.684 E10.48045
G1 X76.128 Y170.42 E10.48963
G1 X76.289 Y169.928 E10.50681
G1 X76.509 Y169.284 E10.52938
G1 X76.994 Y168.092 E10.57208
G1 X77.132 Y167.801 E10.58276
G1 X77.267 Y167.526 E10.59293
G1 X77.553 Y166.967 E10.61376
G1 X77.854 Y166.399 E10.63509
G1 X78.168 Y165.845 E10.65621
G1 X78.519 Y165.295 E10.67786
G1 X78.69 Y165.044 E10.68794
G1 X78.893 Y164.756 E10.69963
G1 X79.25 Y164.268 E10.71969
G1 X79.662 Y163.721 E10.74241
G1 X80.454 Y162.781 E10.78319
G1 X80.655 Y162.567 E10.79293
G1 X80.914 Y162.3 E10.80527
G1 X81.346 Y161.871 E10.82547
G1 X81.821 Y161.411 E10.84741
G1 X82.773 Y160.586 E10.8892
G1 X83.011 Y160.402 E10.89918
G1 X83.272 Y160.206 E10.91001
G1 X83.614 Y159.957 E10.92404
G1 X83.814 Y159.815 E10.93218
G1 X84.405 Y159.404 E10.95607
G1 X85.435 Y158.767 E10.99624
G1 X85.7 Y158.622 E11.00627
G0 F6000 X85.883 Y158.955
G1 F1200 X86.187 Y158.795 E11.01766
G1 X86.731 Y158.521 E11.03787
G1 X87.393 Y158.201 E11.06227
G1 X88.62 Y157.697 E11.10628
G1 X88.989 Y157.571 E11.11921
G1 X89.461 Y157.419 E11.13566
G1 X90.299 Y157.164 E11.16472
G1 X91.495 Y156.872 E11.20557
G1 X91.782 Y156.819 E11.21525
G1 X92.085 Y156.768 E11.22545
G1 X92.648 Y156.681 E11.24435
G1 X93.367 Y156.581 E11.26843
G1 X94.57 Y156.481 E11.30848
G1 X94.857 Y156.473 E11.31801
G1 X95.188 Y156.469 E11.32899
G1 X95.806 Y156.472 E11.34949
G1 X96.516 Y156.486 E11.37305
G1 X96.956 Y156.503 E11.38766
G1 X97.255 Y156.521 E11.3976
G1 X97.75 Y156.558 E11.41407
G1 X108.484 Y157.474 E11.77148
G1 X111.067 Y157.658 E11.8574
G1 X113.58 Y157.765 E11.94085
G1 X116.115 Y157.802 E12.02496
G1 X118.64 Y157.767 E12.10874
G1 X121.119 Y157.663 E12.19106
G1 X123.667 Y157.482 E12.2758
G1 X126.149 Y157.237 E12.35855
G1 X128.688 Y156.912 E12.44347
G1 X131.151 Y156.527 E12.52618
G1 X133.606 Y156.071 E12.60902
G1 X136.086 Y155.538 E12.69318
G1 X138.508 Y154.945 E12.77591
G1 X140.974 Y154.267 E12.86076
G1 X143.38 Y153.531 E12.94423
G1 X145.746 Y152.734 E13.02707
G1 X148.115 Y151.86 E13.11084
G1 X150.472 Y150.914 E13.1951
G1 X152.592 Y149.994 E13.27177
G1 X153.839 Y149.439 E13.31706
G1 X153.843 Y149.447 E13.31735
G1 X154.264 Y149.259 E13.33265
G1 X155.385 Y148.882 E13.37189
G1 X155.692 Y148.797 E13.38246
G1 X156.604 Y148.586 E13.41352
G1 X157.505 Y148.456 E13.44372
G1 X157.888 Y148.417 E13.45649
G1 X158.835 Y148.362 E13.48796
G1 X159.741 Y148.35 E13.51802
G1 X190.293 Y148.35 E14.53165
G1 X191.142 Y148.361 E14.55982
G1 X191.761 Y148.388 E14.58037
G1 X192.253 Y148.426 E14.59674
G1 X192.347 Y148.435 E14.59988
G1 X193.273 Y148.564 E14.63089
G1 X194.025 Y148.729 E14.65644
G1 X194.403 Y148.826 E14.66938
G1 X195.298 Y149.097 E14.70041
G1 X196.142 Y149.432 E14.73054
G1 X196.346 Y149.523 E14.73795
G1 X196.759 Y149.717 E14.75308
G1 X197.582 Y150.162 E14.78413
G1 X198.066 Y150.469 E14.80314
G1 X198.358 Y150.665 E14.81481
G1 X199.112 Y151.219 E14.84585
G1 X199.886 Y151.904 E14.88014
G1 X200.134 Y152.145 E14.89161
G1 X200.777 Y152.825 E14.92266
G1 X201.384 Y153.593 E14.95514
G1 X201.591 Y153.88 E14.96688
G1 X202.105 Y154.661 E14.9979
G1 X202.58 Y155.543 E15.03114
G1 X202.805 Y156.015 E15.04848
G1 X203.161 Y156.881 E15.07955
G1 X203.406 Y157.645 E15.10617
G1 X203.493 Y157.955 E15.11685
G1 X203.707 Y158.866 E15.1479
G1 X203.843 Y159.799 E15.17918
G1 X203.882 Y160.18 E15.19188
G1 X203.938 Y161.134 E15.22359
G1 X203.95 Y162.041 E15.25368
G1 X203.949 Y192.751 E16.27255
G1 X203.939 Y193.442 E16.29548
G1 X203.914 Y194.039 E16.3153
G1 X203.899 Y194.256 E16.32252
G1 X203.863 Y194.671 E16.33634
G1 X203.732 Y195.598 E16.3674
G1 X203.585 Y196.272 E16.39028
G1 X203.492 Y196.642 E16.40294
G1 X203.225 Y197.539 E16.43399
G1 X202.865 Y198.451 E16.46652
G1 X202.77 Y198.663 E16.47423
G1 X202.583 Y199.059 E16.48876
G1 X202.138 Y199.882 E16.5198
G1 X201.84 Y200.351 E16.53823
G1 X201.644 Y200.644 E16.54993
G1 X201.091 Y201.399 E16.58098
G1 X200.38 Y202.203 E16.61659
G1 X200.139 Y202.45 E16.62804
G1 X199.458 Y203.091 E16.65906
G1 X198.707 Y203.684 E16.69081
G1 X198.42 Y203.891 E16.70255
G1 X197.639 Y204.405 E16.73357
G1 X196.757 Y204.88 E16.76681
G1 X196.451 Y205.027 E16.77807
G1 X195.939 Y205.257 E16.79669
G1 X194.639 Y205.711 E16.84238
G1 X194.335 Y205.796 E16.85285
G1 X193.423 Y206.009 E16.88392
G1 X192.495 Y206.144 E16.91503
G1 X192.112 Y206.183 E16.9278
G1 X191.165 Y206.238 E16.95928
G1 X190.259 Y206.25 E16.98934
G1 X159.549 Y206.249 E18.0082
G1 X158.858 Y206.239 E18.03113
G1 X158.239 Y206.212 E18.05169
G1 X157.747 Y206.174 E18.06806
G1 X157.653 Y206.165 E18.07119
G1 X156.727 Y206.036 E18.10221
G1 X155.975 Y205.871 E18.12775
G1 X155.597 Y205.774 E18.1407
G1 X154.702 Y205.503 E18.17172
G1 X153.858 Y205.168 E18.20185
G1 X153.654 Y205.077 E18.20926
G1 X153.35 Y204.936 E18.22038
G1 X152.202 Y204.38 E18.2627
G1 X151.664 Y204.111 E18.28265
G1 X149.388 Y203.051 E18.36595
G1 X147.062 Y202.047 E18.45
G1 X144.721 Y201.112 E18.53364
G1 X142.38 Y200.259 E18.6163
G1 X139.97 Y199.453 E18.70061
G1 X137.589 Y198.731 E18.78316
G1 X135.132 Y198.062 E18.86764
G1 X132.689 Y197.47 E18.95104
G1 X130.216 Y196.943 E19.03493
G1 X127.736 Y196.49 E19.11857
G1 X125.259 Y196.108 E19.20172
G1 X122.768 Y195.796 E19.28501
G1 X120.247 Y195.553 E19.36903
G1 X117.747 Y195.382 E19.45217
G1 X115.232 Y195.282 E19.53568
G1 X112.703 Y195.253 E19.61959
G1 X110.207 Y195.295 E19.70241
G1 X107.656 Y195.41 E19.78713
G1 X105.307 Y195.58 E19.86526
G1 X97.785 Y196.221 E20.11573
G1 X97.086 Y196.271 E20.13898
G1 X96.784 Y196.289 E20.14901
G1 X96.338 Y196.304 E20.16382
G1 X95.757 Y196.313 E20.1831
G1 X95.478 Y196.313 E20.19235
G1 X94.775 Y196.306 E20.21568
G1 X93.59 Y196.23 E20.25507
G1 X93.296 Y196.195 E20.2649
G1 X92.988 Y196.154 E20.2752
G1 X92.415 Y196.068 E20.29443
G1 X91.678 Y195.945 E20.31922
G1 X90.458 Y195.668 E20.36072
G1 X90.183 Y195.589 E20.37022
G1 X89.909 Y195.507 E20.3797
G1 X89.306 Y195.315 E20.4007
G1 X88.653 Y195.096 E20.42355
G1 X87.5 Y194.635 E20.46475
G1 X87.241 Y194.514 E20.47423
G1 X86.979 Y194.387 E20.48389
G1 X86.444 Y194.118 E20.50376
G1 X85.812 Y193.789 E20.5274
G1 X84.734 Y193.147 E20.56902
G1 X84.49 Y192.982 E20.5788
G1 X84.247 Y192.812 E20.58864
G1 X83.761 Y192.463 E20.60849
G1 X83.194 Y192.042 E20.63192
G1 X82.25 Y191.254 E20.67271
G1 X81.994 Y191.015 E20.68433
G1 X81.739 Y190.77 E20.69607
G1 X81.39 Y190.421 E20.71244
G1 X80.882 Y189.901 E20.73656
G1 X80.114 Y189.026 E20.77518
G1 X79.932 Y188.795 E20.78494
G1 X79.693 Y188.48 E20.79806
G1 X79.359 Y188.02 E20.81692
G1 X78.933 Y187.417 E20.84141
G1 X78.288 Y186.388 E20.88171
G1 X78.133 Y186.107 E20.89235
G1 X77.977 Y185.815 E20.90334
G1 X77.797 Y185.464 E20.91642
G1 X77.403 Y184.664 E20.94601
G1 X76.937 Y183.569 E20.98549
G1 X76.842 Y183.307 E20.99474
G1 X76.732 Y182.989 E21.0059
G1 X76.542 Y182.405 E21.02628
G1 X76.328 Y181.711 E21.05037
G1 X76.039 Y180.553 E21.08997
G1 X75.988 Y180.288 E21.09892
G1 X75.931 Y179.963 E21.10987
G1 X75.833 Y179.345 E21.13063
G1 X75.734 Y178.657 E21.15369
G1 X75.627 Y177.443 E21.19412
G1 X75.617 Y177.127 E21.20461
G1 X75.612 Y176.781 E21.21609
G1 X75.613 Y176.233 E21.23427
G1 X75.623 Y175.535 E21.25743
G1 X75.652 Y174.884 E21.27905
G1 X75.716 Y174.25 E21.30019
G1 X75.75 Y173.989 E21.30892
G1 X75.789 Y173.713 E21.31817
G1 X75.888 Y173.09 E21.3391
G1 X76.004 Y172.419 E21.36169
G1 X76.305 Y171.14 E21.40529
G1 X76.409 Y170.793 E21.4173
G1 X76.489 Y170.538 E21.42617
G1 X76.649 Y170.051 E21.44318
G1 X76.869 Y169.407 E21.46576
G1 X77.337 Y168.255 E21.50701
G1 X77.475 Y167.964 E21.51769
G1 X77.606 Y167.698 E21.52753
G1 X77.889 Y167.145 E21.54814
G1 X78.19 Y166.577 E21.56947
G1 X78.493 Y166.04 E21.58992
G1 X78.834 Y165.509 E21.61086
G1 X79.005 Y165.258 E21.62094
G1 X79.201 Y164.979 E21.63225
G1 X79.553 Y164.497 E21.65205
G1 X79.965 Y163.95 E21.67477
G1 X80.731 Y163.041 E21.71421
G1 X80.932 Y162.827 E21.72395
G1 X81.183 Y162.569 E21.73589
G1 X81.61 Y162.144 E21.75588
G1 X82.085 Y161.684 E21.77782
G1 X83.006 Y160.887 E21.81823
G1 X83.244 Y160.703 E21.82821
G1 X83.496 Y160.514 E21.83866
G1 X84.031 Y160.127 E21.86056
G1 X84.622 Y159.716 E21.88445
G1 X85.618 Y159.1 E21.9233
G1 X85.883 Y158.955 E21.93332
G0 F6000 X86.065 Y159.288
G1 F1200 X86.359 Y159.133 E21.94435
G1 X86.896 Y158.863 E21.96429
G1 X87.558 Y158.543 E21.98868
G1 X88.742 Y158.057 E22.03115
G1 X89.111 Y157.931 E22.04408
G1 X89.576 Y157.781 E22.06029
G1 X90.409 Y157.527 E22.08919
G1 X91.565 Y157.246 E22.12866
G1 X91.852 Y157.193 E22.13834
G1 X92.143 Y157.143 E22.14813
G1 X92.7 Y157.058 E22.16683
G1 X93.419 Y156.958 E22.19091
G1 X94.58 Y156.861 E22.22956
G1 X94.867 Y156.853 E22.23909
G1 X95.187 Y156.849 E22.24971
G1 X95.798 Y156.852 E22.26998
G1 X96.508 Y156.866 E22.29354
G1 X96.938 Y156.882 E22.30781
G1 X97.228 Y156.899 E22.31745
G1 X97.718 Y156.936 E22.33376
G1 X108.498 Y157.856 E22.6927
G1 X111.059 Y158.039 E22.77789
G1 X113.559 Y158.145 E22.8609
