;FLAVOR:Marlin
;TIME:5943
;Filament used: 4.5777m
;Layer height: 0.2
;MINX:94.456
;MINY:146.2
;MINZ:0.2
;MAXX:255.569
;MAXY:211.801
;MAXZ:8
;Generated with Cura_SteamEngine 4.10.0
M140 S50
M105
M190 S50
M104 S245
M105
M109 S245
M82 ;absolute extrusion mode
M201 X500.00 Y500.00 Z100.00 E5000.00 ;Setup machine max acceleration
M203 X500.00 Y500.00 Z10.00 E50.00 ;Setup machine max feedrate
M204 P500.00 R1000.00 T500.00 ;Setup Print/Retract/Travel acceleration
M205 X8.00 Y8.00 Z0.40 E5.00 ;Setup Jerk
M220 S100 ;Reset Feedrate
M221 S100 ;Reset Flowrate

G28 ;Home
M420 S1 Z2 ;Enable ABL using saved Mesh and Fade Height

G92 E0 ;Reset Extruder
G1 Z2.0 F3000 ;Move Z Axis up
G1 X10.1 Y20 Z0.28 F5000.0 ;Move to start position
G1 X10.1 Y200.0 Z0.28 F1500.0 E15 ;Draw the first line
G1 X10.4 Y200.0 Z0.28 F5000.0 ;Move to side a little
G1 X10.4 Y20 Z0.28 F1500.0 E30 ;Draw the second line
G92 E0 ;Reset Extruder
G1 Z2.0 F3000 ;Move Z Axis up

G92 E0
G92 E0
G1 F1500 E-7.5
;LAYER_COUNT:40
;LAYER:0
M107
G0 F6000 X108.063 Y152.399 Z0.2
;TYPE:SKIRT
G1 F1500 E0
G1 F1200 X109.013 Y151.77 E0.0378
G1 X109.212 Y151.641 E0.04567
G1 X110.689 Y150.708 E0.10363
G1 X111.19 Y150.4 E0.12314
G1 X112.407 Y149.75 E0.16891
G1 X113.427 Y149.283 E0.20613
G1 X113.644 Y149.187 E0.21401
G1 X115.243 Y148.496 E0.2718
G1 X115.787 Y148.268 E0.29137
G1 X117.099 Y147.81 E0.33747
G1 X118.208 Y147.498 E0.37569
G1 X118.431 Y147.438 E0.38335
G1 X120.087 Y147.009 E0.44011
G1 X120.678 Y146.864 E0.4603
G1 X122.027 Y146.619 E0.50579
G1 X123.184 Y146.48 E0.54445
G1 X123.413 Y146.455 E0.55209
G1 X125.151 Y146.283 E0.61003
G1 X125.726 Y146.234 E0.62918
G1 X127.088 Y146.2 E0.67438
G1 X128.219 Y146.24 E0.71193
G1 X128.45 Y146.251 E0.7196
G1 X130.208 Y146.35 E0.77802
G1 X130.892 Y146.398 E0.80077
G1 X131.221 Y146.426 E0.81172
G1 X131.694 Y146.476 E0.8275
G1 X132.089 Y146.525 E0.84071
G1 X229.295 Y159.57 E4.09462
G1 X229.99 Y159.673 E4.11793
G1 X230.401 Y159.742 E4.13176
G1 X230.694 Y159.798 E4.14165
G1 X231.237 Y159.909 E4.16004
G1 X231.575 Y159.983 E4.17152
G1 X232.277 Y160.149 E4.19545
G1 X233.531 Y160.523 E4.23887
G1 X233.854 Y160.643 E4.2503
G1 X234.397 Y160.854 E4.26963
G1 X234.673 Y160.966 E4.27951
G1 X235.298 Y161.228 E4.30199
G1 X235.864 Y161.484 E4.3226
G1 X236.659 Y161.871 E4.35194
G1 X248.31 Y167.743 E4.7848
G1 X248.919 Y168.061 E4.80759
G1 X249.61 Y168.453 E4.83395
G1 X249.784 Y168.56 E4.84073
G1 X250.573 Y169.092 E4.8723
G1 X251.33 Y169.702 E4.90455
G1 X251.421 Y169.782 E4.90857
G1 X252.109 Y170.44 E4.94016
G1 X252.665 Y171.063 E4.96786
G1 X252.805 Y171.232 E4.97514
G1 X253.381 Y171.99 E5.00673
G1 X253.891 Y172.794 E5.03831
G1 X254.269 Y173.506 E5.06506
G1 X254.375 Y173.724 E5.0731
G1 X254.864 Y174.889 E5.11502
G1 X255.155 Y175.83 E5.1477
G1 X255.345 Y176.686 E5.17679
G1 X255.388 Y176.923 E5.18478
G1 X255.518 Y177.866 E5.21636
G1 X255.569 Y178.817 E5.24796
G1 X255.523 Y179.975 E5.28641
G1 X255.498 Y180.249 E5.29554
G1 X255.372 Y181.193 E5.32713
G1 X255.167 Y182.122 E5.3587
G1 X254.948 Y182.85 E5.38392
G1 X254.879 Y183.054 E5.39106
G1 X254.536 Y183.942 E5.42264
G1 X254.12 Y184.798 E5.45422
G1 X253.543 Y185.754 E5.49127
G1 X253.382 Y185.993 E5.50083
G1 X252.817 Y186.759 E5.53241
G1 X252.19 Y187.476 E5.56401
G1 X251.601 Y188.052 E5.59134
G1 X251.449 Y188.19 E5.59815
G1 X250.718 Y188.799 E5.62972
G1 X249.709 Y189.488 E5.67025
G1 X249.587 Y189.562 E5.67499
G1 X248.971 Y189.91 E5.69846
G1 X248.126 Y190.351 E5.73008
G1 X236.541 Y196.188 E6.16047
G1 X235.895 Y196.503 E6.18431
G1 X235.292 Y196.775 E6.20626
G1 X234.676 Y197.032 E6.2284
G1 X234.416 Y197.137 E6.2377
G1 X233.775 Y197.386 E6.26052
G1 X232.874 Y197.693 E6.2921
G1 X232.286 Y197.849 E6.31228
G1 X231.704 Y197.987 E6.33213
G1 X231.381 Y198.059 E6.34311
G1 X230.635 Y198.213 E6.36838
G1 X230.014 Y198.323 E6.3893
G1 X229.18 Y198.446 E6.41727
G1 X132.153 Y211.465 E9.66518
G1 X131.431 Y211.551 E9.68931
G1 X131.033 Y211.593 E9.70258
G1 X130.685 Y211.62 E9.71416
G1 X130.201 Y211.651 E9.73025
G1 X127.961 Y211.776 E9.80469
G1 X127.378 Y211.801 E9.82405
G1 X126.009 Y211.776 E9.86947
G1 X124.859 Y211.686 E9.90774
G1 X124.621 Y211.665 E9.91567
G1 X122.925 Y211.496 E9.97222
G1 X122.318 Y211.428 E9.99248
G1 X120.959 Y211.191 E10.03825
G1 X119.84 Y210.925 E10.07641
G1 X119.614 Y210.869 E10.08413
G1 X118.061 Y210.466 E10.13736
G1 X117.351 Y210.271 E10.16179
G1 X116.086 Y209.841 E10.20612
G1 X115.019 Y209.406 E10.24435
G1 X114.79 Y209.309 E10.2526
G1 X113.201 Y208.62 E10.31006
G1 X112.657 Y208.376 E10.32984
G1 X111.433 Y207.734 E10.3757
G1 X110.48 Y207.158 E10.41264
G1 X110.285 Y207.038 E10.42024
G1 X108.801 Y206.098 E10.47852
G1 X108.293 Y205.767 E10.49863
G1 X107.2 Y204.957 E10.54377
G1 X106.347 Y204.242 E10.58069
G1 X106.168 Y204.089 E10.58851
G1 X104.928 Y203.005 E10.64315
G1 X104.376 Y202.508 E10.66779
G1 X103.441 Y201.558 E10.71202
G1 X102.67 Y200.676 E10.75088
G1 X102.511 Y200.49 E10.759
G1 X101.383 Y199.141 E10.81734
G1 X101.035 Y198.713 E10.83564
G1 X100.248 Y197.618 E10.88038
G1 X99.635 Y196.648 E10.91845
G1 X99.508 Y196.442 E10.92648
G1 X98.7 Y195.101 E10.97842
G1 X98.29 Y194.397 E11.00545
G1 X97.689 Y193.206 E11.04971
G1 X97.237 Y192.161 E11.08748
G1 X97.145 Y191.941 E11.0954
G1 X96.507 Y190.374 E11.15153
G1 X96.276 Y189.786 E11.17249
G1 X95.852 Y188.48 E11.21804
G1 X95.566 Y187.374 E11.25594
G1 X95.508 Y187.141 E11.26391
G1 X95.169 Y185.701 E11.31299
G1 X95.101 Y185.393 E11.32345
G1 X94.979 Y184.863 E11.3415
G1 X94.758 Y183.568 E11.38508
G1 X94.712 Y183.127 E11.39979
G1 X94.671 Y182.646 E11.41581
G1 X94.499 Y180.418 E11.48995
G1 X94.461 Y179.826 E11.50963
G1 X94.456 Y178.463 E11.55485
G1 X94.52 Y177.326 E11.59263
G1 X94.536 Y177.089 E11.60051
G1 X94.67 Y175.365 E11.65788
G1 X94.726 Y174.754 E11.67824
G1 X94.931 Y173.411 E11.72331
G1 X95.178 Y172.26 E11.76237
G1 X95.232 Y172.022 E11.77046
G1 X95.619 Y170.392 E11.82605
G1 X95.773 Y169.779 E11.84702
G1 X96.184 Y168.482 E11.89216
G1 X96.586 Y167.434 E11.92939
G1 X96.675 Y167.209 E11.93742
G1 X97.337 Y165.59 E11.99545
G1 X97.577 Y165.025 E12.01582
G1 X98.181 Y163.811 E12.06081
G1 X98.752 Y162.817 E12.09884
G1 X98.872 Y162.613 E12.10669
G1 X99.747 Y161.162 E12.1629
G1 X100.09 Y160.611 E12.18444
G1 X100.866 Y159.516 E12.22896
G1 X101.562 Y158.647 E12.2659
G1 X101.719 Y158.456 E12.27411
G1 X102.881 Y157.07 E12.33411
G1 X103.258 Y156.634 E12.35323
G1 X104.188 Y155.679 E12.39746
G1 X105.029 Y154.911 E12.43524
G1 X105.212 Y154.747 E12.4434
G1 X106.561 Y153.569 E12.50282
G1 X106.985 Y153.209 E12.52127
G1 X108.063 Y152.399 E12.566
G0 F6000 X108.273 Y152.716
G1 F1200 X109.223 Y152.087 E12.60381
G1 X109.415 Y151.963 E12.61139
G1 X110.888 Y151.032 E12.6692
G1 X111.389 Y150.724 E12.68871
G1 X112.566 Y150.096 E12.73297
G1 X113.586 Y149.629 E12.77019
G1 X113.795 Y149.536 E12.77778
G1 X115.39 Y148.846 E12.83544
G1 X115.934 Y148.618 E12.85501
G1 X117.202 Y148.176 E12.89956
G1 X118.311 Y147.864 E12.93778
G1 X118.526 Y147.806 E12.94517
G1 X120.178 Y147.378 E13.00179
G1 X120.769 Y147.233 E13.02197
G1 X122.072 Y146.996 E13.06591
G1 X123.229 Y146.857 E13.10458
G1 X123.451 Y146.833 E13.11198
G1 X125.183 Y146.662 E13.16973
G1 X125.758 Y146.613 E13.18887
G1 X127.075 Y146.58 E13.23258
G1 X128.206 Y146.62 E13.27013
G1 X128.429 Y146.63 E13.27753
G1 X130.182 Y146.729 E13.33578
G1 X130.866 Y146.777 E13.35853
G1 X131.184 Y146.804 E13.36912
G1 X131.648 Y146.853 E13.3846
G1 X132.038 Y146.901 E13.39764
G1 X229.239 Y159.946 E16.65139
G1 X229.934 Y160.049 E16.6747
G1 X230.334 Y160.116 E16.68815
G1 X230.618 Y160.17 E16.69774
G1 X231.161 Y160.281 E16.71613
G1 X231.488 Y160.353 E16.72724
G1 X232.19 Y160.519 E16.75117
G1 X233.402 Y160.881 E16.79314
G1 X233.716 Y160.997 E16.80424
G1 X234.259 Y161.208 E16.82357
G1 X234.526 Y161.316 E16.83313
G1 X235.151 Y161.578 E16.85561
G1 X235.698 Y161.825 E16.87552
G1 X236.488 Y162.21 E16.90468
G1 X247.993 Y168.007 E17.3321
G1 X248.743 Y168.398 E17.36016
G1 X249.411 Y168.777 E17.38564
G1 X249.585 Y168.884 E17.39241
G1 X250.36 Y169.407 E17.42343
G1 X251.079 Y169.987 E17.45408
G1 X251.17 Y170.067 E17.4581
G1 X251.846 Y170.714 E17.48915
G1 X252.372 Y171.306 E17.51542
G1 X252.512 Y171.475 E17.5227
G1 X253.078 Y172.22 E17.55374
G1 X253.578 Y173.011 E17.58479
G1 X253.928 Y173.672 E17.6096
G1 X254.034 Y173.89 E17.61764
G1 X254.506 Y175.016 E17.65815
G1 X254.792 Y175.942 E17.6903
G1 X254.971 Y176.754 E17.71789
G1 X255.014 Y176.991 E17.72588
G1 X255.142 Y177.918 E17.75693
G1 X255.19 Y178.853 E17.78799
G1 X255.145 Y179.941 E17.82412
G1 X255.12 Y180.215 E17.83325
G1 X254.995 Y181.142 E17.86428
G1 X254.791 Y182.056 E17.89535
G1 X254.588 Y182.728 E17.91864
G1 X254.519 Y182.932 E17.92578
G1 X254.181 Y183.805 E17.95684
G1 X253.771 Y184.646 E17.98788
G1 X253.228 Y185.542 E18.02264
G1 X253.067 Y185.781 E18.0322
G1 X252.511 Y186.534 E18.06326
G1 X251.893 Y187.237 E18.09431
G1 X251.345 Y187.77 E18.11968
G1 X251.193 Y187.908 E18.12649
G1 X250.474 Y188.507 E18.15753
G1 X249.512 Y189.163 E18.19616
G1 X249.39 Y189.237 E18.2009
G1 X248.795 Y189.573 E18.22357
G1 X247.955 Y190.012 E18.25501
G1 X236.374 Y195.846 E18.68524
G1 X235.728 Y196.161 E18.70908
G1 X235.145 Y196.425 E18.73031
G1 X234.529 Y196.682 E18.75246
G1 X234.278 Y196.783 E18.76143
G1 X233.637 Y197.032 E18.78425
G1 X232.751 Y197.333 E18.81529
G1 X232.198 Y197.48 E18.83428
G1 X231.616 Y197.618 E18.85412
G1 X231.304 Y197.687 E18.86472
G1 X230.558 Y197.841 E18.88999
G1 X229.958 Y197.947 E18.91021
G1 X229.129 Y198.07 E18.93801
G1 X132.269 Y211.068 E22.18034
G1 X131.386 Y211.174 E22.20985
G1 X130.997 Y211.214 E22.22282
G1 X130.661 Y211.241 E22.23401
G1 X130.179 Y211.272 E22.25003
G1 X127.945 Y211.396 E22.32426
G1 X127.362 Y211.421 E22.34362
G1 X126.039 Y211.398 E22.38752
G1 X124.889 Y211.308 E22.42579
G1 X124.658 Y211.287 E22.43349
G1 X122.967 Y211.118 E22.48987
G1 X122.36 Y211.05 E22.51013
G1 X121.047 Y210.821 E22.55435
G1 X119.928 Y210.555 E22.59251
G1 X119.71 Y210.501 E22.59996
G1 X117.996 Y210.055 E22.65872
G1 X117.452 Y209.905 E22.67744
G1 X116.229 Y209.489 E22.7203
G1 X115.162 Y209.054 E22.75853
G1 X114.941 Y208.961 E22.76649
G1 X113.357 Y208.273 E22.82378
G1 X112.813 Y208.029 E22.84356
G1 X111.63 Y207.409 E22.88787
G1 X110.677 Y206.833 E22.92482
G1 X110.488 Y206.716 E22.93219
G1 X109.008 Y205.779 E22.99031
G1 X108.5 Y205.448 E23.01042
G1 X107.444 Y204.666 E23.05402
G1 X106.591 Y203.951 E23.09095
G1 X106.418 Y203.803 E23.0985
G1 X105.178 Y202.719 E23.15314
G1 X104.631 Y202.226 E23.17757
G1 X103.727 Y201.308 E23.22032
G1 X102.956 Y200.426 E23.25918
G1 X102.803 Y200.247 E23.267
G1 X101.678 Y198.901 E23.3252
G1 X101.33 Y198.473 E23.3435
G1 X100.569 Y197.415 E23.38674
G1 X99.956 Y196.445 E23.42481
G1 X99.834 Y196.246 E23.43255
G1 X98.935 Y194.752 E23.4904
G1 X98.618 Y194.206 E23.51134
G1 X98.038 Y193.055 E23.5541
G1 X97.586 Y192.01 E23.59188
G1 X97.497 Y191.798 E23.59951
G1 X96.86 Y190.235 E23.6555
G1 X96.629 Y189.647 E23.67646
G1 X96.22 Y188.384 E23.72051
G1 X95.934 Y187.278 E23.75841
G1 X95.878 Y187.053 E23.7661
G1 X95.54 Y185.619 E23.81498
G1 X95.472 Y185.311 E23.82545
G1 X95.349 Y184.778 E23.84359
G1 X95.136 Y183.526 E23.88573
G1 X95.091 Y183.093 E23.90017
G1 X95.05 Y182.617 E23.91602
G1 X94.878 Y180.393 E23.99003
G1 X94.84 Y179.801 E24.00971
G1 X94.835 Y178.485 E24.05337
G1 X94.899 Y177.348 E24.09115
G1 X94.915 Y177.118 E24.0988
G1 X95.049 Y175.4 E24.15597
G1 X95.105 Y174.789 E24.17633
G1 X95.303 Y173.49 E24.21992
G1 X95.55 Y172.339 E24.25898
G1 X95.602 Y172.11 E24.26677
G1 X95.988 Y170.485 E24.32218
G1 X96.142 Y169.872 E24.34315
G1 X96.538 Y168.618 E24.38678
G1 X96.94 Y167.57 E24.42402
G1 X97.026 Y167.353 E24.43177
G1 X97.627 Y165.881 E24.48452
G1 X97.927 Y165.174 E24.51
G1 X98.51 Y164.001 E24.55345
G1 X99.081 Y163.007 E24.59149
G1 X99.197 Y162.809 E24.5991
G1 X100.07 Y161.363 E24.65514
G1 X100.413 Y160.812 E24.67667
G1 X101.162 Y159.754 E24.71968
G1 X101.858 Y158.885 E24.75662
G1 X102.01 Y158.7 E24.76456
G1 X103.168 Y157.319 E24.82435
G1 X103.545 Y156.883 E24.84348
G1 X104.444 Y155.959 E24.88625
G1 X105.285 Y155.191 E24.92403
G1 X105.462 Y155.033 E24.9319
G1 X106.807 Y153.859 E24.99114
G1 X107.231 Y153.499 E25.00959
G1 X108.273 Y152.716 E25.05283
G0 F6000 X108.483 Y153.033
G1 F1200 X109.433 Y152.404 E25.09063
G1 X109.618 Y152.284 E25.09795
G1 X111.087 Y151.356 E25.1556
G1 X111.588 Y151.048 E25.17511
G1 X112.724 Y150.441 E25.21784
G1 X113.744 Y149.974 E25.25506
G1 X113.946 Y149.884 E25.2624
G1 X115.537 Y149.197 E25.31989
G1 X116.081 Y148.969 E25.33946
G1 X117.304 Y148.542 E25.38244
G1 X118.413 Y148.23 E25.42066
G1 X118.622 Y148.174 E25.42784
G1 X120.268 Y147.747 E25.48425
G1 X120.859 Y147.602 E25.50444
G1 X122.117 Y147.373 E25.54687
G1 X123.274 Y147.234 E25.58553
G1 X125.067 Y147.054 E25.64531
G1 X125.791 Y146.991 E25.66942
G1 X127.062 Y146.96 E25.7116
G1 X128.408 Y147.009 E25.75629
G1 X130.004 Y147.098 E25.80932
G1 X130.839 Y147.156 E25.83709
G1 X131.146 Y147.182 E25.84731
G1 X131.601 Y147.23 E25.86249
G1 X131.988 Y147.278 E25.87543
G1 X229.184 Y160.322 E29.12901
G1 X229.879 Y160.425 E29.15232
G1 X230.268 Y160.49 E29.16541
G1 X230.542 Y160.542 E29.17466
G1 X231.085 Y160.653 E29.19305
G1 X231.4 Y160.723 E29.20375
G1 X232.102 Y160.889 E29.22768
G1 X233.272 Y161.238 E29.26819
G1 X233.578 Y161.352 E29.27903
G1 X234.121 Y161.563 E29.29835
G1 X234.379 Y161.667 E29.30758
G1 X235.004 Y161.929 E29.33007
G1 X235.532 Y162.167 E29.34928
G1 X236.175 Y162.479 E29.37299
G1 X247.958 Y168.416 E29.81074
G1 X248.567 Y168.734 E29.83353
G1 X249.212 Y169.1 E29.85813
G1 X249.386 Y169.207 E29.86491
G1 X250.147 Y169.722 E29.8954
G1 X250.828 Y170.272 E29.92444
G1 X250.919 Y170.352 E29.92846
G1 X251.582 Y170.989 E29.95896
G1 X252.08 Y171.548 E29.9838
G1 X252.22 Y171.717 E29.99108
G1 X252.775 Y172.45 E30.02158
G1 X253.264 Y173.228 E30.05207
G1 X253.586 Y173.838 E30.07496
G1 X253.692 Y174.056 E30.083
G1 X254.147 Y175.143 E30.12209
G1 X254.428 Y176.053 E30.15369
G1 X254.597 Y176.822 E30.17981
G1 X254.64 Y177.059 E30.1878
G1 X254.765 Y177.97 E30.21831
G1 X254.81 Y178.888 E30.2488
G1 X254.766 Y179.906 E30.28261
G1 X254.741 Y180.18 E30.29174
G1 X254.618 Y181.091 E30.32224
G1 X254.416 Y181.988 E30.35274
G1 X254.228 Y182.607 E30.3742
G1 X254.159 Y182.811 E30.38135
G1 X253.827 Y183.668 E30.41184
G1 X253.421 Y184.493 E30.44235
G1 X252.912 Y185.329 E30.47482
G1 X252.751 Y185.568 E30.48438
G1 X252.205 Y186.308 E30.51489
G1 X251.597 Y186.997 E30.54538
G1 X251.09 Y187.489 E30.56882
G1 X250.938 Y187.627 E30.57563
G1 X250.231 Y188.215 E30.60614
G1 X249.315 Y188.838 E30.64289
G1 X249.193 Y188.912 E30.64762
G1 X248.618 Y189.237 E30.66954
G1 X247.935 Y189.595 E30.69512
G1 X236.208 Y195.505 E31.1308
G1 X235.562 Y195.82 E31.15465
G1 X234.999 Y196.074 E31.17514
G1 X234.383 Y196.331 E31.19728
G1 X234.14 Y196.429 E31.20597
G1 X233.499 Y196.678 E31.22879
G1 X232.629 Y196.973 E31.25927
G1 X232.111 Y197.11 E31.27704
G1 X231.529 Y197.248 E31.29689
G1 X231.227 Y197.315 E31.30715
G1 X230.481 Y197.469 E31.33242
G1 X229.902 Y197.572 E31.35193
G1 X229.079 Y197.693 E31.37953
G1 X132.063 Y210.711 E34.62708
G1 X131.341 Y210.797 E34.6512
G1 X130.961 Y210.836 E34.66387
G1 X130.636 Y210.862 E34.67469
G1 X130.158 Y210.893 E34.69058
G1 X128.066 Y211.01 E34.7601
G1 X127.346 Y211.041 E34.78401
G1 X126.068 Y211.019 E34.82641
G1 X124.918 Y210.929 E34.86468
G1 X124.696 Y210.909 E34.87208
G1 X123.009 Y210.74 E34.92833
G1 X122.402 Y210.672 E34.94859
G1 X121.134 Y210.451 E34.9913
G1 X120.015 Y210.185 E35.02946
G1 X119.805 Y210.133 E35.03663
G1 X118.097 Y209.689 E35.09518
G1 X117.553 Y209.539 E35.11391
G1 X116.373 Y209.137 E35.15526
G1 X115.306 Y208.702 E35.19349
G1 X115.092 Y208.612 E35.20119
G1 X113.512 Y207.926 E35.25834
G1 X112.968 Y207.682 E35.27812
G1 X111.826 Y207.084 E35.32089
G1 X110.873 Y206.508 E35.35783
G1 X110.691 Y206.395 E35.36494
G1 X109.216 Y205.461 E35.42286
G1 X108.708 Y205.13 E35.44298
G1 X107.688 Y204.375 E35.48508
G1 X106.835 Y203.66 E35.52201
G1 X106.668 Y203.517 E35.5293
G1 X105.428 Y202.433 E35.58395
G1 X104.885 Y201.944 E35.60819
G1 X104.013 Y201.058 E35.64943
G1 X103.242 Y200.176 E35.6883
G1 X103.094 Y200.003 E35.69585
G1 X102.068 Y198.777 E35.74889
