;FLAVOR:Marlin
;TIME:5699
;Filament used: 4.27933m
;Layer height: 0.2
;MINX:105.449
;MINY:148.198
;MINZ:0.2
;MAXX:244.542
;MAXY:209.801
;MAXZ:8
;Generated with Cura_SteamEngine 4.10.0
M140 S50
M105
M190 S50
M104 S245
M105
M109 S245
M82 ;absolute extrusion mode
M201 X500.00 Y500.00 Z100.00 E5000.00 ;Setup machine max acceleration
M203 X500.00 Y500.00 Z10.00 E50.00 ;Setup machine max feedrate
M204 P500.00 R1000.00 T500.00 ;Setup Print/Retract/Travel acceleration
M205 X8.00 Y8.00 Z0.40 E5.00 ;Setup Jerk
M220 S100 ;Reset Feedrate
M221 S100 ;Reset Flowrate

G28 ;Home
M420 S1 Z2 ;Enable ABL using saved Mesh and Fade Height

G92 E0 ;Reset Extruder
G1 Z2.0 F3000 ;Move Z Axis up
G1 X10.1 Y20 Z0.28 F5000.0 ;Move to start position
G1 X10.1 Y200.0 Z0.28 F1500.0 E15 ;Draw the first line
G1 X10.4 Y200.0 Z0.28 F5000.0 ;Move to side a little
G1 X10.4 Y20 Z0.28 F1500.0 E30 ;Draw the second line
G92 E0 ;Reset Extruder
G1 Z2.0 F3000 ;Move Z Axis up

G92 E0
G92 E0
G1 F1500 E-7.5
;LAYER_COUNT:40
;LAYER:0
M107
G0 F6000 X118.15 Y154.055 Z0.2
;TYPE:SKIRT
G1 F1500 E0
G1 F1200 X119.238 Y153.302 E0.0439
G1 X120.081 Y152.789 E0.07664
G1 X121.362 Y152.04 E0.12587
G1 X122.05 Y151.65 E0.15211
G1 X123.252 Y151.061 E0.19652
G1 X124.328 Y150.612 E0.2352
G1 X125.669 Y150.078 E0.28309
G1 X126.259 Y149.852 E0.30405
G1 X127.526 Y149.45 E0.34815
G1 X128.678 Y149.159 E0.38757
G1 X130.068 Y148.833 E0.43494
G1 X130.708 Y148.692 E0.45668
G1 X132.024 Y148.483 E0.50089
G1 X133.143 Y148.373 E0.53819
G1 X134.639 Y148.253 E0.58798
G1 X135.275 Y148.21 E0.60913
G1 X136.597 Y148.198 E0.65299
G1 X137.49 Y148.242 E0.68266
G1 X137.696 Y148.254 E0.6895
G1 X139.195 Y148.356 E0.73935
G1 X139.909 Y148.414 E0.76312
G1 X140.227 Y148.445 E0.77372
G1 X140.717 Y148.501 E0.79008
G1 X141.014 Y148.541 E0.80002
G1 X150.552 Y149.901 E1.11966
G1 X156.232 Y150.713 E1.31003
G1 X218.479 Y159.595 E3.39611
G1 X219.139 Y159.699 E3.41828
G1 X219.479 Y159.758 E3.42973
G1 X219.804 Y159.822 E3.44072
G1 X220.327 Y159.933 E3.45845
G1 X220.657 Y160.008 E3.46968
G1 X221.363 Y160.18 E3.49379
G1 X222.562 Y160.544 E3.53536
G1 X222.743 Y160.61 E3.54175
G1 X223.025 Y160.717 E3.55176
G1 X223.624 Y160.956 E3.57316
G1 X224.325 Y161.251 E3.59839
G1 X224.893 Y161.509 E3.61909
G1 X225.576 Y161.843 E3.64431
G1 X237.282 Y167.742 E4.07921
G1 X237.893 Y168.061 E4.10207
G1 X238.568 Y168.444 E4.12782
G1 X238.741 Y168.55 E4.13455
G1 X239.531 Y169.081 E4.16613
G1 X240.303 Y169.702 E4.199
G1 X240.394 Y169.782 E4.20302
G1 X241.082 Y170.44 E4.23461
G1 X241.638 Y171.063 E4.26231
G1 X241.778 Y171.232 E4.26959
G1 X242.354 Y171.99 E4.30118
G1 X242.864 Y172.794 E4.33277
G1 X243.242 Y173.506 E4.35951
G1 X243.348 Y173.724 E4.36755
G1 X243.874 Y174.995 E4.41319
G1 X244.156 Y175.939 E4.44588
G1 X244.312 Y176.654 E4.47016
G1 X244.355 Y176.887 E4.47802
G1 X244.488 Y177.829 E4.50958
G1 X244.542 Y178.78 E4.54118
G1 X244.497 Y179.961 E4.58039
G1 X244.472 Y180.238 E4.58962
G1 X244.347 Y181.182 E4.62121
G1 X244.143 Y182.112 E4.6528
G1 X243.921 Y182.85 E4.67837
G1 X243.852 Y183.054 E4.68551
G1 X243.509 Y183.942 E4.7171
G1 X243.093 Y184.798 E4.74867
G1 X242.516 Y185.754 E4.78572
G1 X242.355 Y185.993 E4.79528
G1 X241.79 Y186.759 E4.82686
G1 X241.163 Y187.476 E4.85846
G1 X240.574 Y188.052 E4.88579
G1 X240.422 Y188.19 E4.8926
G1 X239.691 Y188.799 E4.92417
G1 X238.682 Y189.488 E4.9647
G1 X238.56 Y189.562 E4.96944
G1 X237.944 Y189.91 E4.99291
G1 X237.099 Y190.351 E5.02453
G1 X225.491 Y196.199 E5.45576
G1 X224.8 Y196.534 E5.48124
G1 X224.23 Y196.791 E5.50198
G1 X223.709 Y197.009 E5.52072
G1 X223.46 Y197.11 E5.52964
G1 X222.805 Y197.366 E5.55297
G1 X221.597 Y197.761 E5.59513
G1 X221.413 Y197.81 E5.60145
G1 X221.068 Y197.897 E5.61326
G1 X220.613 Y198.003 E5.62876
G1 X219.755 Y198.186 E5.65786
G1 X219.42 Y198.252 E5.66919
G1 X219.058 Y198.315 E5.68138
G1 X218.392 Y198.417 E5.70373
G1 X210.953 Y199.48 E5.95304
G1 X155.699 Y207.363 E7.80477
G1 X150.464 Y208.112 E7.98022
G1 X141.285 Y209.42 E8.28783
G1 X140.414 Y209.532 E8.31696
G1 X140.068 Y209.571 E8.32851
G1 X139.684 Y209.608 E8.34131
G1 X139.358 Y209.634 E8.35216
G1 X137.36 Y209.768 E8.4186
G1 X136.743 Y209.801 E8.4391
G1 X135.411 Y209.794 E8.48329
G1 X134.284 Y209.72 E8.52076
G1 X132.923 Y209.609 E8.56607
G1 X132.183 Y209.539 E8.59073
G1 X130.862 Y209.334 E8.63508
G1 X129.731 Y209.088 E8.67348
G1 X128.32 Y208.756 E8.72157
G1 X127.662 Y208.591 E8.74408
G1 X126.408 Y208.198 E8.78767
G1 X125.528 Y207.865 E8.81889
G1 X124.123 Y207.307 E8.86905
G1 X123.364 Y206.992 E8.89631
G1 X122.198 Y206.425 E8.93933
G1 X121.345 Y205.948 E8.97175
G1 X121.163 Y205.844 E8.9787
G1 X119.962 Y205.142 E9.02486
G1 X119.374 Y204.788 E9.04763
G1 X118.277 Y204.036 E9.09175
G1 X117.38 Y203.339 E9.12944
G1 X116.39 Y202.543 E9.17159
G1 X115.711 Y201.98 E9.20085
G1 X114.754 Y201.088 E9.24425
G1 X114.098 Y200.401 E9.27577
G1 X113.961 Y200.255 E9.28241
G1 X112.973 Y199.181 E9.33083
G1 X112.536 Y198.692 E9.35259
G1 X111.725 Y197.673 E9.39579
G1 X111.184 Y196.906 E9.42693
G1 X111.063 Y196.731 E9.43399
G1 X110.319 Y195.633 E9.478
G1 X109.882 Y194.968 E9.5044
G1 X109.224 Y193.826 E9.54812
G1 X108.703 Y192.783 E9.5868
G1 X108.098 Y191.519 E9.63329
G1 X107.807 Y190.89 E9.65629
G1 X107.317 Y189.641 E9.7008
G1 X107.023 Y188.738 E9.73231
G1 X106.571 Y187.269 E9.7833
G1 X106.358 Y186.544 E9.80837
G1 X106.06 Y185.241 E9.85272
G1 X105.899 Y184.28 E9.88504
G1 X105.68 Y182.831 E9.93366
G1 X105.57 Y182.036 E9.96029
G1 X105.468 Y180.708 E10.00448
G1 X105.449 Y179.56 E10.04257
G1 X105.45 Y178.1 E10.09101
G1 X105.459 Y177.447 E10.11268
G1 X105.555 Y176.121 E10.15678
G1 X105.709 Y174.966 E10.19544
G1 X105.899 Y173.7 E10.23791
G1 X106.028 Y172.908 E10.26454
G1 X106.323 Y171.595 E10.30918
G1 X106.635 Y170.516 E10.34645
G1 X107.078 Y169.077 E10.3964
G1 X107.27 Y168.482 E10.41714
G1 X107.75 Y167.247 E10.4611
G1 X108.143 Y166.388 E10.49244
G1 X108.786 Y165.045 E10.54184
G1 X109.144 Y164.319 E10.5687
G1 X109.812 Y163.15 E10.61337
G1 X110.446 Y162.181 E10.65179
G1 X111.166 Y161.118 E10.69438
G1 X111.64 Y160.439 E10.72186
G1 X112.454 Y159.408 E10.76544
G1 X113.083 Y158.7 E10.79686
G1 X113.226 Y158.542 E10.80393
G1 X114.188 Y157.5 E10.85098
G1 X114.657 Y157.005 E10.8736
G1 X115.622 Y156.1 E10.91749
G1 X116.491 Y155.376 E10.95502
G1 X117.496 Y154.567 E10.99782
G1 X118.15 Y154.055 E11.02538
G0 F6000 X118.384 Y154.354
G1 F1200 X119.436 Y153.627 E11.0678
G1 X120.454 Y153.009 E11.10732
G1 X121.553 Y152.368 E11.14953
G1 X122.237 Y151.981 E11.1756
G1 X123.399 Y151.411 E11.21854
G1 X124.302 Y151.033 E11.25102
G1 X125.661 Y150.489 E11.29958
G1 X126.395 Y150.207 E11.32567
G1 X127.62 Y149.818 E11.36831
G1 X128.765 Y149.529 E11.40749
G1 X130.15 Y149.204 E11.45469
G1 X130.79 Y149.063 E11.47643
G1 X132.061 Y148.861 E11.51913
G1 X132.975 Y148.77 E11.5496
G1 X133.174 Y148.752 E11.55623
G1 X134.664 Y148.632 E11.60583
G1 X135.3 Y148.589 E11.62697
G1 X136.578 Y148.577 E11.66938
G1 X137.471 Y148.621 E11.69904
G1 X139.017 Y148.724 E11.75044
G1 X139.879 Y148.793 E11.77913
G1 X140.186 Y148.822 E11.78937
G1 X140.414 Y148.847 E11.79697
G1 X140.862 Y148.904 E11.81196
G1 X218.419 Y159.97 E14.41113
G1 X219.079 Y160.074 E14.43329
G1 X219.411 Y160.132 E14.44447
G1 X219.725 Y160.194 E14.45509
G1 X220.248 Y160.305 E14.47283
G1 X220.567 Y160.377 E14.48368
G1 X221.273 Y160.549 E14.50779
G1 X222.432 Y160.901 E14.54797
G1 X222.886 Y161.07 E14.56405
G1 X223.253 Y161.215 E14.57714
G1 X223.476 Y161.306 E14.58513
G1 X224.177 Y161.601 E14.61036
G1 X224.726 Y161.85 E14.63036
G1 X225.405 Y162.182 E14.65544
G1 X237.106 Y168.079 E15.09016
G1 X237.717 Y168.398 E15.11302
G1 X238.37 Y168.768 E15.13792
G1 X238.543 Y168.874 E15.14465
G1 X239.319 Y169.397 E15.1757
G1 X240.052 Y169.987 E15.20692
G1 X240.143 Y170.067 E15.21094
G1 X240.819 Y170.714 E15.24198
G1 X241.345 Y171.306 E15.26826
G1 X241.485 Y171.475 E15.27554
G1 X242.051 Y172.22 E15.30658
G1 X242.551 Y173.011 E15.33763
G1 X242.901 Y173.672 E15.36244
G1 X243.007 Y173.89 E15.37048
G1 X243.514 Y175.118 E15.41456
G1 X243.791 Y176.047 E15.44672
G1 X243.938 Y176.723 E15.46967
G1 X243.981 Y176.956 E15.47753
G1 X244.112 Y177.882 E15.50856
G1 X244.162 Y178.817 E15.53963
G1 X244.119 Y179.927 E15.57648
G1 X244.094 Y180.204 E15.58571
G1 X243.97 Y181.132 E15.61677
G1 X243.767 Y182.045 E15.6478
G1 X243.561 Y182.728 E15.67147
G1 X243.492 Y182.932 E15.67861
G1 X243.154 Y183.805 E15.70967
G1 X242.744 Y184.646 E15.74071
G1 X242.201 Y185.542 E15.77547
G1 X242.04 Y185.781 E15.78503
G1 X241.484 Y186.534 E15.81609
G1 X240.866 Y187.237 E15.84714
G1 X240.318 Y187.77 E15.8725
G1 X240.166 Y187.908 E15.87932
G1 X239.447 Y188.507 E15.91036
G1 X238.485 Y189.163 E15.94899
G1 X238.363 Y189.237 E15.95373
G1 X237.768 Y189.573 E15.9764
G1 X236.928 Y190.012 E16.00784
G1 X225.325 Y195.857 E16.43888
G1 X224.634 Y196.192 E16.46436
G1 X224.084 Y196.44 E16.48437
G1 X223.563 Y196.658 E16.50311
G1 X223.322 Y196.756 E16.51174
G1 X222.667 Y197.012 E16.53508
G1 X221.499 Y197.394 E16.57585
G1 X221.315 Y197.443 E16.58216
G1 X220.981 Y197.526 E16.59358
G1 X220.31 Y197.681 E16.61643
G1 X219.677 Y197.815 E16.6379
G1 X219.35 Y197.879 E16.64895
G1 X219 Y197.939 E16.66073
G1 X218.338 Y198.041 E16.68295
G1 X210.899 Y199.104 E16.93226
G1 X155.646 Y206.987 E18.78396
G1 X150.411 Y207.735 E18.9594
G1 X141.072 Y209.065 E19.27237
G1 X140.366 Y209.155 E19.29598
G1 X140.031 Y209.193 E19.30716
G1 X139.647 Y209.23 E19.31996
G1 X139.332 Y209.255 E19.33045
G1 X137.34 Y209.388 E19.39668
G1 X136.723 Y209.421 E19.41718
G1 X135.435 Y209.414 E19.45992
G1 X134.315 Y209.341 E19.49715
G1 X132.808 Y209.217 E19.54732
G1 X132.219 Y209.161 E19.56695
G1 X130.943 Y208.963 E19.60979
G1 X130.008 Y208.761 E19.64152
G1 X128.574 Y208.426 E19.69038
G1 X127.755 Y208.222 E19.71838
G1 X126.543 Y207.842 E19.76052
G1 X125.487 Y207.441 E19.798
G1 X124.097 Y206.886 E19.84766
G1 X123.51 Y206.641 E19.86876
G1 X122.384 Y206.093 E19.91031
G1 X121.355 Y205.516 E19.94945
G1 X120.158 Y204.816 E19.99545
G1 X119.57 Y204.462 E20.01822
G1 X118.51 Y203.736 E20.06085
G1 X117.772 Y203.164 E20.09182
G1 X116.629 Y202.247 E20.14044
G1 X115.953 Y201.688 E20.16954
G1 X115.029 Y200.825 E20.21149
G1 X114.24 Y199.997 E20.24944
G1 X113.256 Y198.928 E20.29764
G1 X112.819 Y198.439 E20.3194
G1 X112.036 Y197.453 E20.36117
G1 X111.495 Y196.686 E20.39231
G1 X111.378 Y196.517 E20.39913
G1 X110.546 Y195.287 E20.4484
G1 X110.2 Y194.76 E20.46931
G1 X109.564 Y193.656 E20.51158
G1 X109.045 Y192.618 E20.55009
G1 X108.443 Y191.36 E20.59636
G1 X108.152 Y190.731 E20.61935
G1 X107.678 Y189.523 E20.6624
G1 X107.384 Y188.62 E20.69391
G1 X106.934 Y187.157 E20.74469
G1 X106.723 Y186.437 E20.76958
G1 X106.435 Y185.178 E20.81243
G1 X106.244 Y184.034 E20.85091
G1 X106.055 Y182.775 E20.89315
G1 X105.947 Y181.984 E20.91963
G1 X105.848 Y180.701 E20.96233
G1 X105.829 Y179.56 E21.00019
G1 X105.83 Y178.105 E21.04846
G1 X105.839 Y177.452 E21.07013
G1 X105.932 Y176.171 E21.11274
G1 X106.085 Y175.023 E21.15116
G1 X106.297 Y173.62 E21.19824
G1 X106.403 Y172.97 E21.22009
G1 X106.688 Y171.7 E21.26327
G1 X106.945 Y170.808 E21.29407
G1 X107.393 Y169.344 E21.34486
G1 X107.632 Y168.598 E21.37085
G1 X108.096 Y167.405 E21.41332
G1 X108.573 Y166.366 E21.45125
G1 X109.187 Y165.087 E21.49832
G1 X109.484 Y164.487 E21.52053
G1 X110.13 Y163.357 E21.56372
G1 X110.659 Y162.547 E21.59581
G1 X111.481 Y161.331 E21.64451
G1 X111.951 Y160.657 E21.67177
G1 X112.738 Y159.66 E21.71391
G1 X113.367 Y158.952 E21.74533
G1 X114.366 Y157.867 E21.79426
G1 X114.933 Y157.267 E21.82165
G1 X115.865 Y156.392 E21.86406
G1 X116.73 Y155.672 E21.9014
G1 X117.857 Y154.766 E21.94938
G1 X118.384 Y154.354 E21.97157
G0 F6000 X118.618 Y154.654
G1 F1200 X119.633 Y153.952 E22.01251
G1 X120.476 Y153.439 E22.04525
G1 X121.745 Y152.697 E22.09402
G1 X121.867 Y152.626 E22.09871
G1 X122.424 Y152.311 E22.11994
G1 X123.546 Y151.762 E22.16138
G1 X124.61 Y151.318 E22.19963
G1 X125.941 Y150.787 E22.24717
G1 X126.531 Y150.561 E22.26813
G1 X127.713 Y150.186 E22.30928
G1 X128.675 Y149.942 E22.3422
G1 X130.084 Y149.609 E22.39024
G1 X130.872 Y149.435 E22.41701
G1 X132.099 Y149.239 E22.45823
G1 X133.013 Y149.148 E22.48871
G1 X134.548 Y149.022 E22.53981
G1 X135.326 Y148.968 E22.56568
G1 X136.559 Y148.957 E22.60659
G1 X137.645 Y149.012 E22.64266
G1 X139.134 Y149.114 E22.69218
G1 X139.848 Y149.172 E22.71595
G1 X140.144 Y149.2 E22.72581
G1 X140.617 Y149.255 E22.74161
G1 X140.907 Y149.294 E22.75132
G1 X218.208 Y160.323 E25.3419
G1 X219.02 Y160.45 E25.36917
G1 X219.343 Y160.505 E25.38004
G1 X219.646 Y160.565 E25.39029
G1 X220.169 Y160.676 E25.40803
G1 X220.477 Y160.746 E25.41851
G1 X221.183 Y160.918 E25.44261
G1 X222.302 Y161.258 E25.48142
G1 X222.746 Y161.423 E25.49713
G1 X223.113 Y161.568 E25.51022
G1 X224.03 Y161.952 E25.54321
G1 X224.56 Y162.192 E25.56251
G1 X225.234 Y162.522 E25.58741
G1 X236.93 Y168.416 E26.02193
G1 X237.541 Y168.735 E26.0448
G1 X238.171 Y169.092 E26.06882
G1 X238.344 Y169.198 E26.07555
G1 X239.107 Y169.712 E26.10608
G1 X239.801 Y170.272 E26.13566
G1 X239.892 Y170.352 E26.13968
G1 X240.555 Y170.989 E26.17018
G1 X241.053 Y171.548 E26.19502
G1 X241.193 Y171.717 E26.2023
G1 X241.748 Y172.45 E26.23281
G1 X242.237 Y173.228 E26.26329
G1 X242.559 Y173.838 E26.28618
G1 X242.665 Y174.056 E26.29422
G1 X243.155 Y175.242 E26.33679
G1 X243.427 Y176.155 E26.3684
G1 X243.564 Y176.792 E26.39002
G1 X243.607 Y177.025 E26.39788
G1 X243.735 Y177.935 E26.42837
G1 X243.783 Y178.853 E26.45886
G1 X243.74 Y179.893 E26.4934
G1 X243.715 Y180.17 E26.50263
G1 X243.593 Y181.081 E26.53312
G1 X243.392 Y181.978 E26.56362
G1 X243.201 Y182.607 E26.58543
G1 X243.132 Y182.811 E26.59257
G1 X242.8 Y183.668 E26.62306
G1 X242.394 Y184.493 E26.65357
G1 X241.885 Y185.329 E26.68604
G1 X241.724 Y185.568 E26.6956
G1 X241.178 Y186.308 E26.72611
G1 X240.57 Y186.997 E26.7566
G1 X240.063 Y187.489 E26.78004
G1 X239.911 Y187.627 E26.78685
G1 X239.204 Y188.215 E26.81736
G1 X238.288 Y188.838 E26.85411
G1 X238.166 Y188.912 E26.85884
G1 X237.591 Y189.237 E26.88076
G1 X236.908 Y189.595 E26.90634
G1 X225.304 Y195.443 E27.33745
G1 X224.468 Y195.85 E27.3683
G1 X223.937 Y196.09 E27.38763
G1 X223.416 Y196.308 E27.40637
G1 X223.184 Y196.402 E27.41468
G1 X222.529 Y196.658 E27.43801
G1 X221.401 Y197.027 E27.47738
G1 X221.217 Y197.076 E27.4837
G1 X220.895 Y197.156 E27.49471
G1 X220.231 Y197.309 E27.51732
G1 X219.598 Y197.443 E27.53878
G1 X219.279 Y197.506 E27.54957
G1 X218.941 Y197.564 E27.56095
G1 X218.284 Y197.665 E27.583
G1 X210.846 Y198.728 E27.83228
G1 X155.588 Y206.611 E29.68413
G1 X150.363 Y207.358 E29.85925
G1 X141.024 Y208.688 E30.17221
G1 X140.318 Y208.778 E30.19582
G1 X139.995 Y208.814 E30.20661
G1 X139.611 Y208.851 E30.21941
G1 X139.307 Y208.876 E30.22953
G1 X137.32 Y209.009 E30.2956
G1 X136.703 Y209.042 E30.3161
G1 X135.46 Y209.035 E30.35733
G1 X134.346 Y208.962 E30.39437
G1 X132.844 Y208.839 E30.44437
G1 X132.255 Y208.783 E30.464
G1 X131.023 Y208.592 E30.50536
G1 X130.088 Y208.39 E30.5371
G1 X128.505 Y208.019 E30.59104
G1 X127.847 Y207.854 E30.61355
G1 X126.677 Y207.487 E30.65423
G1 X125.797 Y207.154 E30.68545
G1 X124.405 Y206.601 E30.73514
G1 X123.657 Y206.29 E30.76202
G1 X122.569 Y205.762 E30.80214
G1 X121.546 Y205.188 E30.84106
G1 X120.354 Y204.491 E30.88687
G1 X119.766 Y204.137 E30.90964
G1 X118.743 Y203.435 E30.9508
G1 X117.857 Y202.747 E30.98802
G1 X116.867 Y201.951 E31.03016
G1 X116.196 Y201.395 E31.05907
G1 X115.303 Y200.563 E31.09957
G1 X114.647 Y199.876 E31.13108
G1 X113.649 Y198.795 E31.17989
G1 X113.103 Y198.185 E31.20705
G1 X112.346 Y197.234 E31.24738
G1 X111.805 Y196.467 E31.27852
G1 X110.949 Y195.206 E31.32909
G1 X110.517 Y194.551 E31.35512
G1 X109.903 Y193.486 E31.3959
G1 X109.469 Y192.62 E31.42804
G1 X108.85 Y191.332 E31.47545
G1 X108.497 Y190.571 E31.50328
G1 X108.039 Y189.405 E31.54484
G1 X107.69 Y188.328 E31.5824
G1 X107.256 Y186.91 E31.6316
G1 X107.087 Y186.331 E31.65161
G1 X106.809 Y185.115 E31.693
G1 X106.62 Y183.977 E31.73127
G1 X106.411 Y182.578 E31.7782
G1 X106.323 Y181.933 E31.7998
G1 X106.228 Y180.694 E31.84103
G1 X106.209 Y179.56 E31.87865
G1 X106.21 Y178.11 E31.92676
G1 X106.219 Y177.457 E31.94843
G1 X106.309 Y176.22 E31.98958
