;FLAVOR:Marlin
;TIME:4094
;Filament used: 2.97032m
;Layer height: 0.2
;MINX:105.946
;MINY:142.698
;MINZ:0.2
;MAXX:244.039
;MAXY:202.3
;MAXZ:6
;Generated with Cura_SteamEngine 4.10.0
M140 S50
M105
M190 S50
M104 S245
M105
M109 S245
M82 ;absolute extrusion mode
M201 X500.00 Y500.00 Z100.00 E5000.00 ;Setup machine max acceleration
M203 X500.00 Y500.00 Z10.00 E50.00 ;Setup machine max feedrate
M204 P500.00 R1000.00 T500.00 ;Setup Print/Retract/Travel acceleration
M205 X8.00 Y8.00 Z0.40 E5.00 ;Setup Jerk
M220 S100 ;Reset Feedrate
M221 S100 ;Reset Flowrate

G28 ;Home
M420 S1 Z2 ;Enable ABL using saved Mesh and Fade Height

G92 E0 ;Reset Extruder
G1 Z2.0 F3000 ;Move Z Axis up
G1 X10.1 Y20 Z0.28 F5000.0 ;Move to start position
G1 X10.1 Y200.0 Z0.28 F1500.0 E15 ;Draw the first line
G1 X10.4 Y200.0 Z0.28 F5000.0 ;Move to side a little
G1 X10.4 Y20 Z0.28 F1500.0 E30 ;Draw the second line
G92 E0 ;Reset Extruder
G1 Z2.0 F3000 ;Move Z Axis up

G92 E0
G92 E0
G1 F1500 E-7.5
;LAYER_COUNT:30
;LAYER:0
M107
G0 F6000 X117.751 Y148.742 Z0.2
;TYPE:SKIRT
G1 F1500 E0
G1 F1200 X118.242 Y148.359 E0.02066
G1 X119.327 Y147.611 E0.06438
G1 X120.102 Y147.14 E0.09447
G1 X120.287 Y147.03 E0.10161
G1 X121.437 Y146.362 E0.14573
G1 X122.014 Y146.036 E0.16772
G1 X123.22 Y145.446 E0.21226
G1 X124.257 Y145.014 E0.24953
G1 X125.52 Y144.513 E0.29461
G1 X126.082 Y144.298 E0.31458
G1 X127.358 Y143.894 E0.35898
G1 X128.518 Y143.603 E0.39866
G1 X129.536 Y143.365 E0.43334
G1 X130.389 Y143.177 E0.46232
G1 X131.713 Y142.967 E0.5068
G1 X132.846 Y142.857 E0.54457
G1 X134.161 Y142.752 E0.58833
G1 X134.81 Y142.709 E0.60991
G1 X136.124 Y142.698 E0.65351
G1 X137.086 Y142.746 E0.68546
G1 X137.302 Y142.759 E0.69264
G1 X138.57 Y142.848 E0.73481
G1 X139.295 Y142.908 E0.75895
G1 X139.612 Y142.938 E0.76951
G1 X139.918 Y142.972 E0.77973
G1 X140.281 Y143.019 E0.79187
G1 X217.845 Y154.186 E3.39175
G1 X218.343 Y154.265 E3.40847
G1 X218.689 Y154.325 E3.42012
G1 X219.387 Y154.458 E3.4437
G1 X219.771 Y154.538 E3.45671
G1 X220.018 Y154.594 E3.46511
G1 X220.96 Y154.851 E3.49751
G1 X221.63 Y155.065 E3.52084
G1 X222.039 Y155.204 E3.53518
G1 X222.417 Y155.345 E3.54856
G1 X223.342 Y155.707 E3.58152
G1 X223.533 Y155.784 E3.58835
G1 X235.918 Y160.894 E4.03285
G1 X236.566 Y161.172 E4.05624
G1 X237.536 Y161.644 E4.09203
G1 X237.717 Y161.743 E4.09887
G1 X238.532 Y162.234 E4.13044
G1 X239.303 Y162.792 E4.16202
G1 X239.895 Y163.294 E4.18777
G1 X240.101 Y163.481 E4.197
G1 X240.779 Y164.15 E4.2286
G1 X241.397 Y164.873 E4.26016
G1 X242.058 Y165.808 E4.29814
G1 X242.191 Y166.018 E4.30639
G1 X242.666 Y166.843 E4.33798
G1 X243.07 Y167.704 E4.36953
G1 X243.377 Y168.524 E4.39858
G1 X243.456 Y168.763 E4.40693
G1 X243.716 Y169.679 E4.43852
G1 X243.899 Y170.613 E4.4701
G1 X244.007 Y171.631 E4.50406
G1 X244.021 Y171.861 E4.51171
G1 X244.039 Y172.812 E4.54326
G1 X243.977 Y173.762 E4.57485
G1 X243.853 Y174.609 E4.60325
G1 X243.804 Y174.874 E4.61219
G1 X243.592 Y175.802 E4.64377
G1 X243.303 Y176.709 E4.67535
G1 X242.929 Y177.608 E4.70766
G1 X242.837 Y177.805 E4.71487
G1 X242.398 Y178.65 E4.74646
G1 X241.934 Y179.39 E4.77544
G1 X241.872 Y179.481 E4.77909
G1 X241.304 Y180.245 E4.81068
G1 X240.675 Y180.956 E4.84217
G1 X240.524 Y181.113 E4.8494
G1 X239.836 Y181.771 E4.88098
G1 X239.095 Y182.368 E4.91255
G1 X238.285 Y182.915 E4.94498
G1 X238.039 Y183.066 E4.95456
G1 X237.208 Y183.529 E4.98612
G1 X236.592 Y183.817 E5.00868
G1 X235.93 Y184.102 E5.03259
G1 X223.279 Y189.319 E5.4866
G1 X222.759 Y189.526 E5.50517
G1 X222.404 Y189.66 E5.51776
G1 X221.759 Y189.892 E5.5405
G1 X221.469 Y189.992 E5.55068
G1 X221.214 Y190.076 E5.55958
G1 X220.186 Y190.362 E5.59499
G1 X219.51 Y190.516 E5.61799
G1 X219.053 Y190.611 E5.63347
G1 X218.704 Y190.672 E5.64523
G1 X217.497 Y190.865 E5.68578
G1 X140.502 Y201.948 E8.26657
G1 X139.841 Y202.034 E8.28869
G1 X139.495 Y202.074 E8.30024
G1 X139.202 Y202.103 E8.31001
G1 X138.796 Y202.137 E8.32353
G1 X137.14 Y202.252 E8.3786
G1 X136.281 Y202.3 E8.40714
G1 X134.949 Y202.294 E8.45134
G1 X133.802 Y202.22 E8.48947
G1 X132.465 Y202.111 E8.53398
G1 X131.84 Y202.051 E8.55481
G1 X130.547 Y201.851 E8.59821
G1 X129.408 Y201.605 E8.63687
G1 X128.192 Y201.32 E8.67831
G1 X127.497 Y201.147 E8.70207
G1 X126.234 Y200.752 E8.74598
G1 X125.153 Y200.343 E8.78432
G1 X124.082 Y199.917 E8.82256
G1 X123.339 Y199.609 E8.84925
G1 X122.158 Y199.037 E8.89278
G1 X121.29 Y198.552 E8.92577
G1 X120.164 Y197.897 E8.96899
G1 X119.463 Y197.477 E8.9961
G1 X118.363 Y196.725 E9.04031
G1 X117.435 Y196.005 E9.07928
G1 X116.437 Y195.201 E9.12179
G1 X115.932 Y194.784 E9.14352
G1 X114.958 Y193.88 E9.18761
G1 X114.298 Y193.19 E9.21929
G1 X114.16 Y193.043 E9.22598
G1 X113.251 Y192.056 E9.2705
G1 X112.826 Y191.581 E9.29164
G1 X112.008 Y190.552 E9.33525
G1 X111.488 Y189.814 E9.36521
G1 X110.723 Y188.689 E9.41034
G1 X110.262 Y187.992 E9.43807
G1 X109.593 Y186.833 E9.48246
G1 X109.069 Y185.785 E9.52134
G1 X108.523 Y184.643 E9.56333
G1 X108.243 Y184.039 E9.58542
G1 X107.75 Y182.787 E9.63006
G1 X107.464 Y181.91 E9.66067
G1 X107.051 Y180.568 E9.70725
G1 X106.828 Y179.807 E9.73356
G1 X106.537 Y178.533 E9.77692
G1 X106.387 Y177.646 E9.80676
G1 X106.354 Y177.44 E9.81368
G1 X106.15 Y176.074 E9.85951
G1 X106.065 Y175.444 E9.8806
G1 X105.965 Y174.133 E9.92422
G1 X105.946 Y172.984 E9.96234
G1 X105.947 Y171.675 E10.00577
G1 X105.956 Y171.017 E10.02761
G1 X106.052 Y169.691 E10.07171
G1 X106.198 Y168.596 E10.10836
G1 X106.377 Y167.403 E10.14839
G1 X106.507 Y166.61 E10.17505
G1 X106.798 Y165.32 E10.21892
G1 X107.063 Y164.399 E10.25072
G1 X107.454 Y163.121 E10.29506
G1 X107.696 Y162.362 E10.32149
G1 X108.184 Y161.102 E10.36632
G1 X108.583 Y160.231 E10.3981
G1 X109.148 Y159.05 E10.44154
G1 X109.523 Y158.292 E10.46959
G1 X110.184 Y157.138 E10.51372
G1 X110.823 Y156.162 E10.55242
G1 X111.559 Y155.08 E10.59583
G1 X111.925 Y154.557 E10.61701
G1 X112.747 Y153.518 E10.66097
G1 X113.518 Y152.654 E10.69939
G1 X114.417 Y151.68 E10.74336
G1 X114.846 Y151.228 E10.76404
G1 X115.808 Y150.326 E10.80779
G1 X116.548 Y149.709 E10.83975
G1 X116.713 Y149.574 E10.84683
G1 X117.751 Y148.742 E10.89096
G0 F6000 X117.985 Y149.042
G1 F1200 X118.476 Y148.659 E10.91162
G1 X119.524 Y147.936 E10.95386
G1 X120.478 Y147.358 E10.99087
G1 X121.624 Y146.692 E11.03484
G1 X122.201 Y146.366 E11.05683
G1 X123.366 Y145.796 E11.09986
G1 X124.223 Y145.438 E11.13067
G1 X125.522 Y144.92 E11.17707
G1 X126.217 Y144.653 E11.20177
G1 X127.451 Y144.263 E11.24471
G1 X128.418 Y144.019 E11.2778
G1 X129.622 Y143.736 E11.31883
G1 X130.471 Y143.548 E11.34768
G1 X131.751 Y143.345 E11.39068
G1 X132.685 Y143.253 E11.42181
G1 X134.029 Y143.143 E11.46655
G1 X134.835 Y143.088 E11.49336
G1 X136.105 Y143.078 E11.53549
G1 X137.275 Y143.138 E11.57436
G1 X138.539 Y143.226 E11.6164
G1 X139.264 Y143.286 E11.64053
G1 X139.57 Y143.316 E11.65073
G1 X139.876 Y143.35 E11.66095
G1 X140.227 Y143.395 E11.67269
G1 X217.786 Y154.561 E14.27239
G1 X218.284 Y154.64 E14.28912
G1 X218.618 Y154.699 E14.30037
G1 X219.316 Y154.832 E14.32395
G1 X219.687 Y154.909 E14.33652
G1 X219.934 Y154.965 E14.34492
G1 X220.845 Y155.213 E14.37625
G1 X221.515 Y155.427 E14.39958
G1 X221.909 Y155.562 E14.4134
G1 X222.279 Y155.699 E14.42649
G1 X223.204 Y156.061 E14.45944
G1 X223.388 Y156.135 E14.46602
G1 X235.768 Y161.243 E14.91034
G1 X236.416 Y161.521 E14.93374
G1 X237.354 Y161.977 E14.96834
G1 X237.535 Y162.076 E14.97518
G1 X238.336 Y162.56 E15.00623
G1 X239.092 Y163.11 E15.03725
G1 X239.64 Y163.575 E15.06109
G1 X239.846 Y163.762 E15.07032
G1 X240.511 Y164.42 E15.10136
G1 X241.118 Y165.133 E15.13243
G1 X241.737 Y166.011 E15.16807
G1 X241.87 Y166.221 E15.17632
G1 X242.336 Y167.032 E15.20735
G1 X242.732 Y167.88 E15.2384
G1 X243.016 Y168.643 E15.26541
G1 X243.095 Y168.882 E15.27376
G1 X243.35 Y169.783 E15.30483
G1 X243.528 Y170.701 E15.33585
G1 X243.628 Y171.654 E15.36764
G1 X243.642 Y171.884 E15.37529
G1 X243.659 Y172.819 E15.40631
G1 X243.596 Y173.753 E15.43737
G1 X243.479 Y174.54 E15.46377
G1 X243.43 Y174.805 E15.47271
G1 X243.221 Y175.717 E15.50375
G1 X242.935 Y176.608 E15.5348
G1 X242.584 Y177.447 E15.56497
G1 X242.492 Y177.644 E15.57218
G1 X242.061 Y178.474 E15.60321
G1 X241.62 Y179.176 E15.63072
G1 X241.558 Y179.267 E15.63437
G1 X240.999 Y180.018 E15.66543
G1 X240.401 Y180.693 E15.69535
G1 X240.25 Y180.85 E15.70258
G1 X239.573 Y181.496 E15.73362
G1 X238.844 Y182.082 E15.76465
G1 X238.086 Y182.591 E15.79494
G1 X237.84 Y182.742 E15.80452
G1 X237.023 Y183.197 E15.83555
G1 X236.442 Y183.468 E15.85682
G1 X235.78 Y183.753 E15.88073
G1 X223.139 Y188.966 E16.33438
G1 X222.619 Y189.173 E16.35295
G1 X222.275 Y189.303 E16.36515
G1 X221.63 Y189.535 E16.38789
G1 X221.35 Y189.631 E16.39771
G1 X221.095 Y189.715 E16.40662
G1 X220.101 Y189.991 E16.44084
G1 X219.425 Y190.145 E16.46385
G1 X218.981 Y190.237 E16.47889
G1 X218.643 Y190.297 E16.49028
G1 X217.443 Y190.489 E16.5306
G1 X140.453 Y201.571 E19.11122
G1 X139.792 Y201.657 E19.13333
G1 X139.458 Y201.696 E19.14449
G1 X139.165 Y201.725 E19.15426
G1 X138.663 Y201.766 E19.17097
G1 X136.956 Y201.883 E19.22774
G1 X136.26 Y201.921 E19.25086
G1 X134.973 Y201.915 E19.29356
G1 X133.832 Y201.842 E19.33149
G1 X132.667 Y201.748 E19.37027
G1 X131.877 Y201.673 E19.3966
G1 X130.626 Y201.479 E19.4386
G1 X129.494 Y201.235 E19.47702
G1 X128.284 Y200.951 E19.51825
G1 X127.589 Y200.778 E19.54201
G1 X126.368 Y200.397 E19.58445
G1 X125.294 Y199.99 E19.62255
G1 X124.223 Y199.564 E19.66079
G1 X123.485 Y199.258 E19.6873
G1 X122.344 Y198.705 E19.72937
G1 X121.304 Y198.122 E19.76892
G1 X120.229 Y197.495 E19.81021
G1 X119.658 Y197.152 E19.83231
G1 X118.596 Y196.425 E19.87501
G1 X117.831 Y195.833 E19.9071
G1 X116.792 Y195 E19.95128
G1 X116.174 Y194.491 E19.97784
G1 X115.233 Y193.617 E20.02045
G1 X114.573 Y192.927 E20.05213
G1 X113.649 Y191.928 E20.09728
G1 X113.11 Y191.327 E20.12406
G1 X112.319 Y190.333 E20.16621
G1 X111.69 Y189.438 E20.2025
G1 X110.954 Y188.352 E20.24603
G1 X110.579 Y187.783 E20.26863
G1 X109.933 Y186.663 E20.31153
G1 X109.412 Y185.621 E20.35018
G1 X108.929 Y184.614 E20.38723
G1 X108.588 Y183.879 E20.41412
G1 X108.112 Y182.669 E20.45726
G1 X107.767 Y181.608 E20.49427
G1 X107.368 Y180.303 E20.53954
G1 X107.193 Y179.701 E20.56034
G1 X106.911 Y178.47 E20.60224
G1 X106.761 Y177.583 E20.63209
G1 X106.526 Y176.023 E20.68443
G1 X106.441 Y175.393 E20.70552
G1 X106.345 Y174.126 E20.74768
G1 X106.326 Y172.984 E20.78557
G1 X106.327 Y171.68 E20.82883
G1 X106.336 Y171.022 E20.85066
G1 X106.429 Y169.741 E20.89328
G1 X106.574 Y168.652 E20.92972
G1 X106.778 Y167.303 E20.97499
G1 X106.882 Y166.672 E20.99621
G1 X107.163 Y165.425 E21.03862
G1 X107.428 Y164.504 E21.07041
G1 X107.817 Y163.233 E21.11451
G1 X108.058 Y162.478 E21.1408
G1 X108.53 Y161.261 E21.18411
G1 X109.01 Y160.215 E21.22229
G1 X109.557 Y159.077 E21.26418
G1 X109.863 Y158.461 E21.287
G1 X110.502 Y157.346 E21.32964
G1 X111.138 Y156.375 E21.36815
G1 X111.871 Y155.298 E21.41137
G1 X112.237 Y154.775 E21.43255
G1 X113.031 Y153.77 E21.47504
G1 X113.674 Y153.048 E21.50712
G1 X114.582 Y152.061 E21.55161
G1 X115.122 Y151.49 E21.57769
G1 X116.052 Y150.618 E21.61998
G1 X116.792 Y150.001 E21.65195
G1 X116.951 Y149.871 E21.65876
G1 X117.985 Y149.042 E21.70273
G0 F6000 X118.219 Y149.342
G1 F1200 X118.71 Y148.959 E21.72339
G1 X119.721 Y148.26 E21.76417
G1 X120.496 Y147.789 E21.79426
G1 X121.693 Y147.091 E21.84023
G1 X122.388 Y146.697 E21.86674
G1 X123.513 Y146.147 E21.90828
G1 X124.538 Y145.72 E21.94512
G1 X125.791 Y145.223 E21.98984
G1 X126.353 Y145.008 E22.00981
G1 X127.544 Y144.631 E22.05125
G1 X128.511 Y144.387 E22.08434
G1 X129.844 Y144.075 E22.12976
G1 X130.553 Y143.919 E22.15384
G1 X131.788 Y143.723 E22.19533
G1 X132.907 Y143.614 E22.23263
G1 X134.211 Y143.51 E22.27603
G1 X134.86 Y143.467 E22.29761
G1 X136.086 Y143.457 E22.33829
G1 X137.048 Y143.505 E22.37024
G1 X137.249 Y143.517 E22.37692
G1 X138.508 Y143.605 E22.4188
G1 X139.233 Y143.665 E22.44293
G1 X139.528 Y143.694 E22.45277
G1 X139.834 Y143.728 E22.46298
G1 X140.173 Y143.771 E22.47432
G1 X217.726 Y154.937 E25.07382
G1 X218.224 Y155.016 E25.09055
G1 X218.546 Y155.072 E25.1014
G1 X219.244 Y155.205 E25.12497
G1 X219.603 Y155.28 E25.13714
G1 X219.85 Y155.336 E25.14554
G1 X220.729 Y155.575 E25.17576
G1 X221.399 Y155.789 E25.1991
G1 X221.78 Y155.919 E25.21245
G1 X222.14 Y156.053 E25.2252
G1 X223.065 Y156.415 E25.25815
G1 X223.244 Y156.487 E25.26455
G1 X235.618 Y161.592 E25.70865
G1 X236.266 Y161.87 E25.73204
G1 X237.171 Y162.311 E25.76544
G1 X237.352 Y162.41 E25.77229
G1 X238.139 Y162.885 E25.80279
G1 X238.881 Y163.428 E25.83329
G1 X239.384 Y163.857 E25.85522
G1 X239.59 Y164.044 E25.86445
G1 X240.244 Y164.691 E25.89498
G1 X240.838 Y165.392 E25.92546
G1 X241.416 Y166.214 E25.9588
G1 X241.549 Y166.424 E25.96705
G1 X242.006 Y167.222 E25.99755
G1 X242.393 Y168.056 E26.02806
G1 X242.655 Y168.763 E26.05307
G1 X242.734 Y169.002 E26.06142
G1 X242.984 Y169.886 E26.0919
G1 X243.157 Y170.789 E26.12241
G1 X243.248 Y171.677 E26.15202
G1 X243.262 Y171.907 E26.15967
G1 X243.278 Y172.826 E26.19016
G1 X243.214 Y173.743 E26.22066
G1 X243.106 Y174.471 E26.24508
G1 X243.057 Y174.736 E26.25402
G1 X242.85 Y175.632 E26.28453
G1 X242.567 Y176.506 E26.31501
G1 X242.24 Y177.287 E26.3431
G1 X242.148 Y177.484 E26.35031
G1 X241.723 Y178.299 E26.3808
G1 X241.306 Y178.962 E26.40679
G1 X241.244 Y179.053 E26.41044
G1 X240.694 Y179.79 E26.44095
G1 X240.127 Y180.429 E26.4693
G1 X239.976 Y180.586 E26.47652
G1 X239.311 Y181.22 E26.50701
G1 X238.593 Y181.794 E26.5375
G1 X237.887 Y182.267 E26.5657
G1 X237.641 Y182.418 E26.57527
G1 X236.838 Y182.865 E26.60576
G1 X236.292 Y183.119 E26.62574
G1 X235.63 Y183.404 E26.64965
G1 X223.118 Y188.564 E27.09868
G1 X222.478 Y188.819 E27.12154
G1 X222.147 Y188.945 E27.13329
G1 X221.502 Y189.177 E27.15603
G1 X221.231 Y189.27 E27.16553
G1 X220.976 Y189.354 E27.17444
G1 X220.017 Y189.621 E27.20747
G1 X219.341 Y189.775 E27.23047
G1 X218.909 Y189.864 E27.2451
G1 X218.583 Y189.922 E27.25609
G1 X217.389 Y190.113 E27.29621
G1 X140.404 Y201.195 E29.87666
G1 X139.743 Y201.281 E29.89878
G1 X139.42 Y201.318 E29.90956
G1 X139.127 Y201.347 E29.91933
G1 X138.636 Y201.387 E29.93568
G1 X136.935 Y201.503 E29.99224
G1 X136.239 Y201.541 E30.01537
G1 X134.997 Y201.536 E30.05657
G1 X133.863 Y201.463 E30.09427
G1 X132.538 Y201.355 E30.13838
G1 X131.913 Y201.295 E30.15921
G1 X130.706 Y201.108 E30.19973
G1 X129.581 Y200.865 E30.23792
G1 X128.376 Y200.582 E30.27898
G1 X127.681 Y200.409 E30.30275
G1 X126.502 Y200.041 E30.34372
G1 X125.434 Y199.637 E30.38161
G1 X124.363 Y199.211 E30.41985
G1 X123.63 Y198.907 E30.44617
G1 X122.529 Y198.373 E30.48677
G1 X121.495 Y197.794 E30.52609
G1 X120.425 Y197.169 E30.5672
G1 X119.854 Y196.826 E30.5893
G1 X118.828 Y196.124 E30.63054
G1 X118.063 Y195.532 E30.66264
G1 X117.911 Y195.412 E30.66906
G1 X116.921 Y194.615 E30.71123
G1 X116.416 Y194.198 E30.73296
G1 X115.508 Y193.354 E30.77408
G1 X114.719 Y192.527 E30.81201
G1 X113.818 Y191.549 E30.85612
G1 X113.393 Y191.074 E30.87727
G1 X112.629 Y190.114 E30.91797
G1 X112.109 Y189.376 E30.94793
G1 X111.351 Y188.262 E30.99263
G1 X110.896 Y187.574 E31.02
G1 X110.272 Y186.493 E31.06141
G1 X109.835 Y185.621 E31.09377
G1 X109.212 Y184.324 E31.1415
G1 X108.932 Y183.72 E31.16359
G1 X108.473 Y182.551 E31.20526
G1 X108.187 Y181.674 E31.23586
G1 X107.778 Y180.345 E31.28199
G1 X107.733 Y180.197 E31.28713
G1 X107.558 Y179.595 E31.30793
G1 X107.286 Y178.406 E31.34839
G1 X107.105 Y177.328 E31.38466
G1 X106.925 Y176.13 E31.42485
G1 X106.818 Y175.342 E31.45123
G1 X106.725 Y174.119 E31.49193
G1 X106.706 Y172.984 E31.52959
G1 X106.707 Y171.685 E31.57268
G1 X106.716 Y171.027 E31.59452
G1 X106.806 Y169.79 E31.63567
G1 X106.95 Y168.709 E31.67185
G1 X107.153 Y167.365 E31.71694
G1 X107.257 Y166.734 E31.73816
G1 X107.528 Y165.53 E31.7791
G1 X107.793 Y164.609 E31.8109
G1 X108.18 Y163.344 E31.85479
G1 X108.42 Y162.594 E31.88091
G1 X108.875 Y161.419 E31.92272
G1 X109.274 Y160.548 E31.9545
G1 X109.833 Y159.379 E31.99749
G1 X110.204 Y158.631 E32.02519
G1 X110.82 Y157.554 E32.06636
G1 X111.452 Y156.589 E32.10463
G1 X112.182 Y155.516 E32.14768
G1 X112.548 Y154.993 E32.16886
